(/Applications/pcbgcode.repo/pcb-gcode.ulp)
(Copyright 2005 - 2012 by John Johnson)
(See readme.txt for licensing terms.)
(This file generated from the board:)
(.../attenuverter/eagle/attenuverter.brd)
(Current profile is .../pcbgcode.repo/profiles/mach.pp  )
(This file generated 12/5/15 8:36 AM)
(Settings from pcb-machine.h)
(spindle on time = 0.0000)
(  Tool Size)
(0.0100  )
(spindle speed = 30000.0000)
(tool change at 0.0000  0.0000  3.0000  )
(feed rate xy = F20    )
(feed rate z  = F10    )
(Z Axis Settings)
(  High     Up        Down     Drill)
(1.0000  	0.0500  	-0.0040 	-0.0730 )
(Settings from pcb-defaults.h)
(isolate min = 0.0010)
(isolate max = 0.0150)
(isolate step = 0.0015)
(Generated bottom outlines, bottom drill, )
(Unit of measure: inch)
(Inch Mode)
G20
(Absolute Coordinates)
G90
S30000
G00 Z1.0000  
G00 X0.0000  Y0.0000  
M03
G04 P0.000000
G00 Z0.0500  
G00 X-0.0557 Y0.1604  
G01 Z-0.0040 F10    
G01 X-0.0619 Y0.1541  F20    
G01 X-0.0691 Y0.1490  
G01 X-0.0769 Y0.1450  
G01 X-0.0853 Y0.1422  
G01 X-0.0940 Y0.1409  
G01 X-0.1028 Y0.1409  
G01 X-0.1115 Y0.1422  
G01 X-0.1199 Y0.1450  
G01 X-0.1278 Y0.1490  
G01 X-0.1349 Y0.1541  
G01 X-0.1411 Y0.1604  
G01 X-0.1463 Y0.1675  
G01 X-0.1503 Y0.1754  
G01 X-0.1530 Y0.1837  
G01 X-0.1544 Y0.1924  
G01 X-0.1544 Y0.3013  
G01 X-0.1530 Y0.3100  
G01 X-0.1503 Y0.3183  
G01 X-0.1463 Y0.3262  
G01 X-0.1411 Y0.3333  
G01 X-0.1349 Y0.3396  
G01 X-0.1278 Y0.3447  
G01 X-0.1199 Y0.3487  
G01 X-0.1115 Y0.3515  
G01 X-0.1028 Y0.3529  
G01 X-0.0940 Y0.3529  
G01 X-0.0853 Y0.3515  
G01 X-0.0769 Y0.3487  
G01 X-0.0720 Y0.3462  
G01 X-0.0720 Y0.4280  
G01 X-0.5029 Y0.4280  
G01 X-0.5085 Y0.4295  
G01 X-0.5135 Y0.4324  
G01 X-0.5176 Y0.4365  
G01 X-0.5591 Y0.4780  
G01 X-0.6409 Y0.4780  
G01 X-0.6742 Y0.4447  
G01 X-0.6742 Y0.4290  
G01 X-0.6751 Y0.4268  
G01 X-0.6768 Y0.4251  
G01 X-0.6790 Y0.4242  
G01 X-0.7210 Y0.4242  
G01 X-0.7232 Y0.4251  
G01 X-0.7249 Y0.4268  
G01 X-0.7258 Y0.4290  
G01 X-0.7258 Y0.4710  
G01 X-0.7249 Y0.4732  
G01 X-0.7232 Y0.4749  
G01 X-0.7210 Y0.4758  
G01 X-0.7053 Y0.4758  
G01 X-0.6676 Y0.5135  
G01 X-0.6635 Y0.5176  
G01 X-0.6585 Y0.5205  
G01 X-0.6529 Y0.5220  
G01 X-0.5471 Y0.5220  
G01 X-0.5415 Y0.5205  
G01 X-0.5365 Y0.5176  
G01 X-0.4909 Y0.4720  
G01 X-0.0720 Y0.4720  
G01 X-0.0720 Y0.8409  
G01 X-0.1083 Y0.8772  
G01 X-0.1126 Y0.8712  
G01 X-0.1181 Y0.8658  
G01 X-0.1243 Y0.8612  
G01 X-0.1312 Y0.8577  
G01 X-0.1385 Y0.8554  
G01 X-0.1461 Y0.8541  
G01 X-0.1539 Y0.8541  
G01 X-0.1615 Y0.8554  
G01 X-0.1688 Y0.8577  
G01 X-0.1757 Y0.8612  
G01 X-0.1819 Y0.8658  
G01 X-0.1874 Y0.8712  
G01 X-0.1919 Y0.8775  
G01 X-0.1954 Y0.8843  
G01 X-0.1978 Y0.8917  
G01 X-0.1990 Y0.8993  
G01 X-0.1990 Y0.9070  
G01 X-0.1978 Y0.9146  
G01 X-0.1954 Y0.9220  
G01 X-0.1919 Y0.9288  
G01 X-0.1874 Y0.9351  
G01 X-0.1819 Y0.9405  
G01 X-0.1757 Y0.9451  
G01 X-0.1688 Y0.9486  
G01 X-0.1615 Y0.9509  
G01 X-0.1539 Y0.9521  
G01 X-0.1461 Y0.9521  
G01 X-0.1385 Y0.9509  
G01 X-0.1312 Y0.9486  
G01 X-0.1243 Y0.9451  
G01 X-0.1181 Y0.9405  
G01 X-0.1126 Y0.9351  
G01 X-0.1081 Y0.9288  
G01 X-0.1062 Y0.9251  
G01 X-0.1003 Y0.9251  
G01 X-0.0947 Y0.9237  
G01 X-0.0896 Y0.9208  
G01 X-0.0365 Y0.8676  
G01 X-0.0324 Y0.8635  
G01 X-0.0295 Y0.8585  
G01 X-0.0280 Y0.8529  
G01 X-0.0280 Y0.2924  
G01 X-0.0295 Y0.2868  
G01 X-0.0324 Y0.2818  
G01 X-0.0424 Y0.2717  
G01 X-0.0424 Y0.1924  
G01 X-0.0438 Y0.1837  
G01 X-0.0465 Y0.1754  
G01 X-0.0505 Y0.1675  
G01 X-0.0557 Y0.1604  
G00 Z0.0500  
G00 X-0.1172 Y0.5220  
G01 Z-0.0040 F10    
G01 X-0.1220 Y0.5172  F20    
G01 X-0.1275 Y0.5132  
G01 X-0.1335 Y0.5102  
G01 X-0.1399 Y0.5081  
G01 X-0.1466 Y0.5070  
G01 X-0.1534 Y0.5070  
G01 X-0.1601 Y0.5081  
G01 X-0.1665 Y0.5102  
G01 X-0.1725 Y0.5132  
G01 X-0.1780 Y0.5172  
G01 X-0.1828 Y0.5220  
G01 X-0.1868 Y0.5275  
G01 X-0.1871 Y0.5280  
G01 X-0.5029 Y0.5280  
G01 X-0.5085 Y0.5295  
G01 X-0.5135 Y0.5324  
G01 X-0.5176 Y0.5365  
G01 X-0.5591 Y0.5780  
G01 X-0.6409 Y0.5780  
G01 X-0.6865 Y0.5324  
G01 X-0.6915 Y0.5295  
G01 X-0.6971 Y0.5280  
G01 X-0.7767 Y0.5280  
G01 X-0.7796 Y0.5251  
G01 X-0.7848 Y0.5216  
G01 X-0.7907 Y0.5192  
G01 X-0.7968 Y0.5180  
G01 X-0.8032 Y0.5180  
G01 X-0.8093 Y0.5192  
G01 X-0.8152 Y0.5216  
G01 X-0.8204 Y0.5251  
G01 X-0.8249 Y0.5296  
G01 X-0.8284 Y0.5348  
G01 X-0.8308 Y0.5407  
G01 X-0.8320 Y0.5468  
G01 X-0.8320 Y0.5532  
G01 X-0.8308 Y0.5593  
G01 X-0.8284 Y0.5652  
G01 X-0.8249 Y0.5704  
G01 X-0.8204 Y0.5749  
G01 X-0.8152 Y0.5784  
G01 X-0.8093 Y0.5808  
G01 X-0.8032 Y0.5820  
G01 X-0.7968 Y0.5820  
G01 X-0.7907 Y0.5808  
G01 X-0.7848 Y0.5784  
G01 X-0.7796 Y0.5749  
G01 X-0.7767 Y0.5720  
G01 X-0.7091 Y0.5720  
G01 X-0.6676 Y0.6135  
G01 X-0.6635 Y0.6176  
G01 X-0.6585 Y0.6205  
G01 X-0.6529 Y0.6220  
G01 X-0.5471 Y0.6220  
G01 X-0.5415 Y0.6205  
G01 X-0.5365 Y0.6176  
G01 X-0.4909 Y0.5720  
G01 X-0.4220 Y0.5720  
G01 X-0.4220 Y0.6746  
G01 X-0.4232 Y0.6751  
G01 X-0.4249 Y0.6768  
G01 X-0.4258 Y0.6790  
G01 X-0.4258 Y0.7210  
G01 X-0.4249 Y0.7232  
G01 X-0.4232 Y0.7249  
G01 X-0.4210 Y0.7258  
G01 X-0.3790 Y0.7258  
G01 X-0.3768 Y0.7249  
G01 X-0.3751 Y0.7232  
G01 X-0.3742 Y0.7210  
G01 X-0.3742 Y0.6790  
G01 X-0.3751 Y0.6768  
G01 X-0.3768 Y0.6751  
G01 X-0.3780 Y0.6746  
G01 X-0.3780 Y0.5720  
G01 X-0.1871 Y0.5720  
G01 X-0.1868 Y0.5725  
G01 X-0.1828 Y0.5780  
G01 X-0.1780 Y0.5828  
G01 X-0.1725 Y0.5868  
G01 X-0.1665 Y0.5898  
G01 X-0.1601 Y0.5919  
G01 X-0.1534 Y0.5930  
G01 X-0.1466 Y0.5930  
G01 X-0.1399 Y0.5919  
G01 X-0.1335 Y0.5898  
G01 X-0.1275 Y0.5868  
G01 X-0.1220 Y0.5828  
G01 X-0.1172 Y0.5780  
G01 X-0.1132 Y0.5725  
G01 X-0.1102 Y0.5665  
G01 X-0.1081 Y0.5601  
G01 X-0.1070 Y0.5534  
G01 X-0.1070 Y0.5466  
G01 X-0.1081 Y0.5399  
G01 X-0.1102 Y0.5335  
G01 X-0.1132 Y0.5275  
G01 X-0.1172 Y0.5220  
G00 Z0.0500  
G00 X-0.1172 Y0.6220  
G01 Z-0.0040 F10    
G01 X-0.1220 Y0.6172  F20    
G01 X-0.1275 Y0.6132  
G01 X-0.1335 Y0.6102  
G01 X-0.1399 Y0.6081  
G01 X-0.1466 Y0.6070  
G01 X-0.1534 Y0.6070  
G01 X-0.1601 Y0.6081  
G01 X-0.1665 Y0.6102  
G01 X-0.1725 Y0.6132  
G01 X-0.1780 Y0.6172  
G01 X-0.1828 Y0.6220  
G01 X-0.1868 Y0.6275  
G01 X-0.1898 Y0.6335  
G01 X-0.1919 Y0.6399  
G01 X-0.1930 Y0.6466  
G01 X-0.1930 Y0.6534  
G01 X-0.1919 Y0.6601  
G01 X-0.1898 Y0.6665  
G01 X-0.1868 Y0.6725  
G01 X-0.1828 Y0.6780  
G01 X-0.1780 Y0.6828  
G01 X-0.1725 Y0.6868  
G01 X-0.1720 Y0.6871  
G01 X-0.1720 Y0.6909  
G01 X-0.2676 Y0.7865  
G01 X-0.2705 Y0.7915  
G01 X-0.2720 Y0.7971  
G01 X-0.2720 Y0.9529  
G01 X-0.2705 Y0.9585  
G01 X-0.2676 Y0.9635  
G01 X-0.2635 Y0.9676  
G01 X-0.2135 Y1.0176  
G01 X-0.2085 Y1.0205  
G01 X-0.2029 Y1.0220  
G01 X-0.1091 Y1.0220  
G01 X-0.0720 Y1.0591  
G01 X-0.0720 Y1.3409  
G01 X-0.1091 Y1.3780  
G01 X-0.2439 Y1.3780  
G01 X-0.4680 Y1.2435  
G01 X-0.4680 Y1.2367  
G01 X-0.4867 Y1.2180  
G01 X-0.5133 Y1.2180  
G01 X-0.5320 Y1.2367  
G01 X-0.5320 Y1.2633  
G01 X-0.5220 Y1.2733  
G01 X-0.5220 Y1.4767  
G01 X-0.5320 Y1.4867  
G01 X-0.5320 Y1.5133  
G01 X-0.5133 Y1.5320  
G01 X-0.4991 Y1.5320  
G01 X-0.4171 Y1.6140  
G01 X-0.4167 Y1.6146  
G01 X-0.4151 Y1.6161  
G01 X-0.4135 Y1.6176  
G01 X-0.4129 Y1.6180  
G01 X-0.4123 Y1.6184  
G01 X-0.4104 Y1.6194  
G01 X-0.4085 Y1.6205  
G01 X-0.4078 Y1.6207  
G01 X-0.4072 Y1.6210  
G01 X-0.4050 Y1.6214  
G01 X-0.4029 Y1.6220  
G01 X-0.4022 Y1.6220  
G01 X-0.1906 Y1.6643  
G01 X-0.1898 Y1.6665  
G01 X-0.1868 Y1.6725  
G01 X-0.1828 Y1.6780  
G01 X-0.1780 Y1.6828  
G01 X-0.1725 Y1.6868  
G01 X-0.1665 Y1.6898  
G01 X-0.1601 Y1.6919  
G01 X-0.1534 Y1.6930  
G01 X-0.1466 Y1.6930  
G01 X-0.1399 Y1.6919  
G01 X-0.1335 Y1.6898  
G01 X-0.1275 Y1.6868  
G01 X-0.1220 Y1.6828  
G01 X-0.1172 Y1.6780  
G01 X-0.1132 Y1.6725  
G01 X-0.1102 Y1.6665  
G01 X-0.1081 Y1.6601  
G01 X-0.1070 Y1.6534  
G01 X-0.1070 Y1.6466  
G01 X-0.1081 Y1.6399  
G01 X-0.1102 Y1.6335  
G01 X-0.1132 Y1.6275  
G01 X-0.1172 Y1.6220  
G01 X-0.1220 Y1.6172  
G01 X-0.1275 Y1.6132  
G01 X-0.1335 Y1.6102  
G01 X-0.1399 Y1.6081  
G01 X-0.1466 Y1.6070  
G01 X-0.1534 Y1.6070  
G01 X-0.1601 Y1.6081  
G01 X-0.1665 Y1.6102  
G01 X-0.1725 Y1.6132  
G01 X-0.1780 Y1.6172  
G01 X-0.1820 Y1.6212  
G01 X-0.3892 Y1.5797  
G01 X-0.4680 Y1.5009  
G01 X-0.4680 Y1.4867  
G01 X-0.4780 Y1.4767  
G01 X-0.4780 Y1.2889  
G01 X-0.2636 Y1.4175  
G01 X-0.2635 Y1.4176  
G01 X-0.2612 Y1.4190  
G01 X-0.2588 Y1.4204  
G01 X-0.2587 Y1.4204  
G01 X-0.2585 Y1.4205  
G01 X-0.2559 Y1.4212  
G01 X-0.2533 Y1.4219  
G01 X-0.2531 Y1.4220  
G01 X-0.2529 Y1.4220  
G01 X-0.2502 Y1.4220  
G01 X-0.2475 Y1.4220  
G01 X-0.2473 Y1.4220  
G01 X-0.0971 Y1.4220  
G01 X-0.0915 Y1.4205  
G01 X-0.0865 Y1.4176  
G01 X-0.0365 Y1.3676  
G01 X-0.0324 Y1.3635  
G01 X-0.0295 Y1.3585  
G01 X-0.0280 Y1.3529  
G01 X-0.0280 Y1.0471  
G01 X-0.0295 Y1.0415  
G01 X-0.0324 Y1.0365  
G01 X-0.0824 Y0.9865  
G01 X-0.0865 Y0.9824  
G01 X-0.0915 Y0.9795  
G01 X-0.0971 Y0.9780  
G01 X-0.1909 Y0.9780  
G01 X-0.2280 Y0.9409  
G01 X-0.2280 Y0.8091  
G01 X-0.1324 Y0.7135  
G01 X-0.1295 Y0.7085  
G01 X-0.1280 Y0.7029  
G01 X-0.1280 Y0.6871  
G01 X-0.1275 Y0.6868  
G01 X-0.1220 Y0.6828  
G01 X-0.1172 Y0.6780  
G01 X-0.1132 Y0.6725  
G01 X-0.1102 Y0.6665  
G01 X-0.1081 Y0.6601  
G01 X-0.1070 Y0.6534  
G01 X-0.1070 Y0.6466  
G01 X-0.1081 Y0.6399  
G01 X-0.1102 Y0.6335  
G01 X-0.1132 Y0.6275  
G01 X-0.1172 Y0.6220  
G00 Z0.0500  
G00 X-0.4824 Y0.6865  
G01 Z-0.0040 F10    
G01 X-0.4865 Y0.6824  F20    
G01 X-0.4915 Y0.6795  
G01 X-0.4971 Y0.6780  
G01 X-0.6448 Y0.6780  
G01 X-0.7396 Y0.6306  
G01 X-0.7415 Y0.6295  
G01 X-0.7422 Y0.6293  
G01 X-0.7428 Y0.6290  
G01 X-0.7449 Y0.6286  
G01 X-0.7471 Y0.6280  
G01 X-0.7478 Y0.6280  
G01 X-0.7484 Y0.6279  
G01 X-0.7507 Y0.6280  
G01 X-0.7767 Y0.6280  
G01 X-0.7796 Y0.6251  
G01 X-0.7848 Y0.6216  
G01 X-0.7907 Y0.6192  
G01 X-0.7968 Y0.6180  
G01 X-0.8032 Y0.6180  
G01 X-0.8093 Y0.6192  
G01 X-0.8152 Y0.6216  
G01 X-0.8204 Y0.6251  
G01 X-0.8249 Y0.6296  
G01 X-0.8284 Y0.6348  
G01 X-0.8308 Y0.6407  
G01 X-0.8320 Y0.6468  
G01 X-0.8320 Y0.6532  
G01 X-0.8308 Y0.6593  
G01 X-0.8284 Y0.6652  
G01 X-0.8249 Y0.6704  
G01 X-0.8204 Y0.6749  
G01 X-0.8152 Y0.6784  
G01 X-0.8093 Y0.6808  
G01 X-0.8032 Y0.6820  
G01 X-0.7968 Y0.6820  
G01 X-0.7907 Y0.6808  
G01 X-0.7848 Y0.6784  
G01 X-0.7796 Y0.6749  
G01 X-0.7767 Y0.6720  
G01 X-0.7552 Y0.6720  
G01 X-0.6604 Y0.7194  
G01 X-0.6585 Y0.7205  
G01 X-0.6578 Y0.7207  
G01 X-0.6572 Y0.7210  
G01 X-0.6551 Y0.7214  
G01 X-0.6529 Y0.7220  
G01 X-0.6522 Y0.7220  
G01 X-0.6516 Y0.7221  
G01 X-0.6493 Y0.7220  
G01 X-0.5220 Y0.7220  
G01 X-0.5220 Y0.8267  
G01 X-0.5320 Y0.8367  
G01 X-0.5320 Y0.8633  
G01 X-0.5133 Y0.8820  
G01 X-0.4867 Y0.8820  
G01 X-0.4680 Y0.8633  
G01 X-0.4680 Y0.8367  
G01 X-0.4780 Y0.8267  
G01 X-0.4780 Y0.6971  
G01 X-0.4795 Y0.6915  
G01 X-0.4824 Y0.6865  
G00 Z0.0500  
G00 X-0.5680 Y0.8117  
G01 Z-0.0040 F10    
G01 X-0.5867 Y0.7930  F20    
G01 X-0.6133 Y0.7930  
G01 X-0.6158 Y0.7956  
G01 X-0.7705 Y0.7376  
G01 X-0.7716 Y0.7348  
G01 X-0.7751 Y0.7296  
G01 X-0.7796 Y0.7251  
G01 X-0.7848 Y0.7216  
G01 X-0.7907 Y0.7192  
G01 X-0.7968 Y0.7180  
G01 X-0.8032 Y0.7180  
G01 X-0.8093 Y0.7192  
G01 X-0.8152 Y0.7216  
G01 X-0.8204 Y0.7251  
G01 X-0.8233 Y0.7280  
G01 X-0.8409 Y0.7280  
G01 X-0.9280 Y0.6409  
G01 X-0.9280 Y0.5471  
G01 X-0.9295 Y0.5415  
G01 X-0.9324 Y0.5365  
G01 X-0.9365 Y0.5324  
G01 X-1.0365 Y0.4324  
G01 X-1.0415 Y0.4295  
G01 X-1.0471 Y0.4280  
G01 X-1.0767 Y0.4280  
G01 X-1.0796 Y0.4251  
G01 X-1.0848 Y0.4216  
G01 X-1.0907 Y0.4192  
G01 X-1.0968 Y0.4180  
G01 X-1.1032 Y0.4180  
G01 X-1.1093 Y0.4192  
G01 X-1.1152 Y0.4216  
G01 X-1.1204 Y0.4251  
G01 X-1.1233 Y0.4280  
G01 X-1.1767 Y0.4280  
G01 X-1.1867 Y0.4180  
G01 X-1.2133 Y0.4180  
G01 X-1.2320 Y0.4367  
G01 X-1.2320 Y0.4633  
G01 X-1.2133 Y0.4820  
G01 X-1.1867 Y0.4820  
G01 X-1.1767 Y0.4720  
G01 X-1.1233 Y0.4720  
G01 X-1.1204 Y0.4749  
G01 X-1.1152 Y0.4784  
G01 X-1.1093 Y0.4808  
G01 X-1.1032 Y0.4820  
G01 X-1.0968 Y0.4820  
G01 X-1.0907 Y0.4808  
G01 X-1.0848 Y0.4784  
G01 X-1.0796 Y0.4749  
G01 X-1.0767 Y0.4720  
G01 X-1.0591 Y0.4720  
G01 X-0.9720 Y0.5591  
G01 X-0.9720 Y0.6529  
G01 X-0.9705 Y0.6585  
G01 X-0.9676 Y0.6635  
G01 X-0.8676 Y0.7635  
G01 X-0.8635 Y0.7676  
G01 X-0.8585 Y0.7705  
G01 X-0.8529 Y0.7720  
G01 X-0.8233 Y0.7720  
G01 X-0.8204 Y0.7749  
G01 X-0.8152 Y0.7784  
G01 X-0.8093 Y0.7808  
G01 X-0.8032 Y0.7820  
G01 X-0.7968 Y0.7820  
G01 X-0.7907 Y0.7808  
G01 X-0.7859 Y0.7788  
G01 X-0.6320 Y0.8365  
G01 X-0.6320 Y0.8383  
G01 X-0.6133 Y0.8570  
G01 X-0.5867 Y0.8570  
G01 X-0.5680 Y0.8383  
G01 X-0.5680 Y0.8117  
G00 Z0.0500  
G00 X-0.6890 Y0.8809  
G01 Z-0.0040 F10    
G01 X-0.6903 Y0.8800  F20    
G01 X-0.6916 Y0.8796  
G01 X-0.6928 Y0.8790  
G01 X-0.6943 Y0.8787  
G01 X-0.8393 Y0.8304  
G01 X-1.0680 Y0.6474  
G01 X-1.0680 Y0.6468  
G01 X-1.0692 Y0.6407  
G01 X-1.0716 Y0.6348  
G01 X-1.0751 Y0.6296  
G01 X-1.0796 Y0.6251  
G01 X-1.0848 Y0.6216  
G01 X-1.0907 Y0.6192  
G01 X-1.0968 Y0.6180  
G01 X-1.1032 Y0.6180  
G01 X-1.1093 Y0.6192  
G01 X-1.1152 Y0.6216  
G01 X-1.1204 Y0.6251  
G01 X-1.1249 Y0.6296  
G01 X-1.1284 Y0.6348  
G01 X-1.1308 Y0.6407  
G01 X-1.1320 Y0.6468  
G01 X-1.1320 Y0.6532  
G01 X-1.1308 Y0.6593  
G01 X-1.1284 Y0.6652  
G01 X-1.1249 Y0.6704  
G01 X-1.1204 Y0.6749  
G01 X-1.1152 Y0.6784  
G01 X-1.1093 Y0.6808  
G01 X-1.1032 Y0.6820  
G01 X-1.0968 Y0.6820  
G01 X-1.0955 Y0.6817  
G01 X-0.8652 Y0.8660  
G01 X-0.8645 Y0.8668  
G01 X-0.8630 Y0.8678  
G01 X-0.8615 Y0.8690  
G01 X-0.8606 Y0.8694  
G01 X-0.8597 Y0.8700  
G01 X-0.8579 Y0.8706  
G01 X-0.8562 Y0.8713  
G01 X-0.8552 Y0.8715  
G01 X-0.7084 Y0.9204  
G01 X-0.5104 Y1.0194  
G01 X-0.5085 Y1.0205  
G01 X-0.5078 Y1.0207  
G01 X-0.5072 Y1.0210  
G01 X-0.5051 Y1.0214  
G01 X-0.5029 Y1.0220  
G01 X-0.5022 Y1.0220  
G01 X-0.5016 Y1.0221  
G01 X-0.4993 Y1.0220  
G01 X-0.4042 Y1.0220  
G01 X-0.1990 Y1.1041  
G01 X-0.1978 Y1.1115  
G01 X-0.1954 Y1.1188  
G01 X-0.1919 Y1.1257  
G01 X-0.1874 Y1.1319  
G01 X-0.1819 Y1.1374  
G01 X-0.1757 Y1.1419  
G01 X-0.1688 Y1.1454  
G01 X-0.1615 Y1.1478  
G01 X-0.1539 Y1.1490  
G01 X-0.1461 Y1.1490  
G01 X-0.1385 Y1.1478  
G01 X-0.1312 Y1.1454  
G01 X-0.1243 Y1.1419  
G01 X-0.1181 Y1.1374  
G01 X-0.1126 Y1.1319  
G01 X-0.1081 Y1.1257  
G01 X-0.1046 Y1.1188  
G01 X-0.1022 Y1.1115  
G01 X-0.1010 Y1.1039  
G01 X-0.1010 Y1.0961  
G01 X-0.1022 Y1.0885  
G01 X-0.1046 Y1.0812  
G01 X-0.1081 Y1.0743  
G01 X-0.1126 Y1.0681  
G01 X-0.1181 Y1.0626  
G01 X-0.1243 Y1.0581  
G01 X-0.1312 Y1.0546  
G01 X-0.1385 Y1.0522  
G01 X-0.1461 Y1.0510  
G01 X-0.1539 Y1.0510  
G01 X-0.1615 Y1.0522  
G01 X-0.1688 Y1.0546  
G01 X-0.1757 Y1.0581  
G01 X-0.1819 Y1.0626  
G01 X-0.1826 Y1.0633  
G01 X-0.3904 Y0.9802  
G01 X-0.3915 Y0.9795  
G01 X-0.3930 Y0.9791  
G01 X-0.3945 Y0.9785  
G01 X-0.3958 Y0.9783  
G01 X-0.3971 Y0.9780  
G01 X-0.3987 Y0.9780  
G01 X-0.4003 Y0.9778  
G01 X-0.4016 Y0.9780  
G01 X-0.4948 Y0.9780  
G01 X-0.6890 Y0.8809  
G00 Z0.0500  
G00 X-0.6790 Y0.9742  
G01 Z-0.0040 F10    
G01 X-0.7210 Y0.9742  F20    
G01 X-0.7232 Y0.9751  
G01 X-0.7249 Y0.9768  
G01 X-0.7254 Y0.9780  
G01 X-0.8409 Y0.9780  
G01 X-0.9180 Y0.9009  
G01 X-0.9180 Y0.8867  
G01 X-0.9367 Y0.8680  
G01 X-0.9633 Y0.8680  
G01 X-0.9820 Y0.8867  
G01 X-0.9820 Y0.9133  
G01 X-0.9700 Y0.9253  
G01 X-0.9252 Y1.4628  
G01 X-1.0570 Y1.3969  
G01 X-1.0570 Y1.3822  
G01 X-1.0822 Y1.3570  
G01 X-1.1178 Y1.3570  
G01 X-1.1388 Y1.3780  
G01 X-1.1612 Y1.3780  
G01 X-1.1822 Y1.3570  
G01 X-1.2178 Y1.3570  
G01 X-1.2388 Y1.3780  
G01 X-1.2780 Y1.3780  
G01 X-1.2780 Y0.3936  
G01 X-1.0197 Y0.3506  
G01 X-1.0133 Y0.3570  
G01 X-0.9867 Y0.3570  
G01 X-0.9680 Y0.3383  
G01 X-0.9680 Y0.3117  
G01 X-0.9867 Y0.2930  
G01 X-1.0133 Y0.2930  
G01 X-1.0275 Y0.3073  
G01 X-1.3018 Y0.3530  
G01 X-1.3029 Y0.3530  
G01 X-1.3047 Y0.3535  
G01 X-1.3065 Y0.3538  
G01 X-1.3075 Y0.3542  
G01 X-1.3085 Y0.3545  
G01 X-1.3101 Y0.3554  
G01 X-1.3117 Y0.3562  
G01 X-1.3126 Y0.3569  
G01 X-1.3135 Y0.3574  
G01 X-1.3148 Y0.3587  
G01 X-1.3162 Y0.3599  
G01 X-1.3168 Y0.3607  
G01 X-1.3176 Y0.3615  
G01 X-1.3185 Y0.3631  
G01 X-1.3196 Y0.3646  
G01 X-1.3200 Y0.3656  
G01 X-1.3205 Y0.3665  
G01 X-1.3210 Y0.3683  
G01 X-1.3216 Y0.3700  
G01 X-1.3217 Y0.3711  
G01 X-1.3220 Y0.3721  
G01 X-1.3220 Y0.3739  
G01 X-1.3222 Y0.3758  
G01 X-1.3220 Y0.3768  
G01 X-1.3220 Y1.4029  
G01 X-1.3205 Y1.4085  
G01 X-1.3176 Y1.4135  
G01 X-1.3135 Y1.4176  
G01 X-1.3085 Y1.4205  
G01 X-1.3029 Y1.4220  
G01 X-1.2388 Y1.4220  
G01 X-1.2220 Y1.4388  
G01 X-1.2220 Y1.4612  
G01 X-1.2430 Y1.4822  
G01 X-1.2430 Y1.5178  
G01 X-1.2220 Y1.5388  
G01 X-1.2220 Y1.5612  
G01 X-1.2430 Y1.5822  
G01 X-1.2430 Y1.6178  
G01 X-1.2178 Y1.6430  
G01 X-1.1822 Y1.6430  
G01 X-1.1570 Y1.6178  
G01 X-1.1570 Y1.5822  
G01 X-1.1780 Y1.5612  
G01 X-1.1780 Y1.5388  
G01 X-1.1612 Y1.5220  
G01 X-1.1388 Y1.5220  
G01 X-1.1220 Y1.5388  
G01 X-1.1220 Y1.5612  
G01 X-1.1430 Y1.5822  
G01 X-1.1430 Y1.6178  
G01 X-1.1178 Y1.6430  
G01 X-1.0822 Y1.6430  
G01 X-1.0570 Y1.6178  
G01 X-1.0570 Y1.5822  
G01 X-1.0780 Y1.5612  
G01 X-1.0780 Y1.5388  
G01 X-1.0570 Y1.5178  
G01 X-1.0570 Y1.4822  
G01 X-1.0780 Y1.4612  
G01 X-1.0780 Y1.4388  
G01 X-1.0759 Y1.4367  
G01 X-0.9320 Y1.5086  
G01 X-0.9320 Y1.5133  
G01 X-0.9133 Y1.5320  
G01 X-0.8867 Y1.5320  
G01 X-0.8862 Y1.5315  
G01 X-0.8220 Y1.5636  
G01 X-0.8220 Y2.0529  
G01 X-0.8205 Y2.0585  
G01 X-0.8176 Y2.0635  
G01 X-0.8135 Y2.0676  
G01 X-0.7176 Y2.1635  
G01 X-0.7135 Y2.1676  
G01 X-0.7085 Y2.1705  
G01 X-0.7029 Y2.1720  
G01 X-0.2487 Y2.1720  
G01 X-0.2431 Y2.1705  
G01 X-0.2381 Y2.1676  
G01 X-0.1464 Y2.0760  
G01 X-0.1463 Y2.0762  
G01 X-0.1411 Y2.0833  
G01 X-0.1349 Y2.0896  
G01 X-0.1278 Y2.0947  
G01 X-0.1199 Y2.0987  
G01 X-0.1115 Y2.1015  
G01 X-0.1028 Y2.1029  
G01 X-0.0940 Y2.1029  
G01 X-0.0853 Y2.1015  
G01 X-0.0769 Y2.0987  
G01 X-0.0691 Y2.0947  
G01 X-0.0619 Y2.0896  
G01 X-0.0557 Y2.0833  
G01 X-0.0505 Y2.0762  
G01 X-0.0465 Y2.0683  
G01 X-0.0438 Y2.0600  
G01 X-0.0424 Y2.0513  
G01 X-0.0424 Y1.9424  
G01 X-0.0438 Y1.9337  
G01 X-0.0465 Y1.9254  
G01 X-0.0505 Y1.9175  
G01 X-0.0557 Y1.9104  
G01 X-0.0619 Y1.9041  
G01 X-0.0691 Y1.8990  
G01 X-0.0769 Y1.8950  
G01 X-0.0853 Y1.8922  
G01 X-0.0940 Y1.8909  
G01 X-0.1028 Y1.8909  
G01 X-0.1115 Y1.8922  
G01 X-0.1199 Y1.8950  
G01 X-0.1278 Y1.8990  
G01 X-0.1349 Y1.9041  
G01 X-0.1411 Y1.9104  
G01 X-0.1463 Y1.9175  
G01 X-0.1503 Y1.9254  
G01 X-0.1530 Y1.9337  
G01 X-0.1544 Y1.9424  
G01 X-0.1544 Y2.0217  
G01 X-0.2607 Y2.1280  
G01 X-0.6909 Y2.1280  
G01 X-0.7780 Y2.0409  
G01 X-0.7780 Y1.5522  
G01 X-0.7779 Y1.5516  
G01 X-0.7780 Y1.5493  
G01 X-0.7780 Y1.5471  
G01 X-0.7782 Y1.5465  
G01 X-0.7782 Y1.5458  
G01 X-0.7789 Y1.5437  
G01 X-0.7795 Y1.5415  
G01 X-0.7798 Y1.5409  
G01 X-0.7800 Y1.5403  
G01 X-0.7813 Y1.5384  
G01 X-0.7824 Y1.5365  
G01 X-0.7829 Y1.5360  
G01 X-0.7832 Y1.5355  
G01 X-0.7849 Y1.5340  
G01 X-0.7865 Y1.5324  
G01 X-0.7871 Y1.5321  
G01 X-0.7876 Y1.5316  
G01 X-0.7896 Y1.5306  
G01 X-0.7915 Y1.5295  
G01 X-0.7922 Y1.5293  
G01 X-0.8680 Y1.4914  
G01 X-0.8680 Y1.4867  
G01 X-0.8800 Y1.4747  
G01 X-0.9231 Y0.9580  
G01 X-0.8676 Y1.0135  
G01 X-0.8635 Y1.0176  
G01 X-0.8585 Y1.0205  
G01 X-0.8529 Y1.0220  
G01 X-0.7254 Y1.0220  
G01 X-0.7249 Y1.0232  
G01 X-0.7232 Y1.0249  
G01 X-0.7210 Y1.0258  
G01 X-0.6790 Y1.0258  
G01 X-0.6768 Y1.0249  
G01 X-0.6751 Y1.0232  
G01 X-0.6742 Y1.0210  
G01 X-0.6742 Y0.9790  
G01 X-0.6751 Y0.9768  
G01 X-0.6768 Y0.9751  
G01 X-0.6790 Y0.9742  
G00 Z0.0500  
G00 X-0.6780 Y1.1220  
G01 Z-0.0040 F10    
G01 X-0.4566 Y1.1220  F20    
G01 X-0.1990 Y1.2929  
G01 X-0.1990 Y1.2930  
G01 X-0.1990 Y1.3007  
G01 X-0.1978 Y1.3083  
G01 X-0.1954 Y1.3157  
G01 X-0.1919 Y1.3225  
G01 X-0.1874 Y1.3288  
G01 X-0.1819 Y1.3342  
G01 X-0.1757 Y1.3388  
G01 X-0.1688 Y1.3423  
G01 X-0.1615 Y1.3446  
G01 X-0.1539 Y1.3459  
G01 X-0.1461 Y1.3459  
G01 X-0.1385 Y1.3446  
G01 X-0.1312 Y1.3423  
G01 X-0.1243 Y1.3388  
G01 X-0.1181 Y1.3342  
G01 X-0.1126 Y1.3288  
G01 X-0.1081 Y1.3225  
G01 X-0.1046 Y1.3157  
G01 X-0.1022 Y1.3083  
G01 X-0.1010 Y1.3007  
G01 X-0.1010 Y1.2930  
G01 X-0.1022 Y1.2854  
G01 X-0.1046 Y1.2780  
G01 X-0.1081 Y1.2712  
G01 X-0.1126 Y1.2649  
G01 X-0.1181 Y1.2595  
G01 X-0.1243 Y1.2549  
G01 X-0.1312 Y1.2514  
G01 X-0.1385 Y1.2491  
G01 X-0.1461 Y1.2479  
G01 X-0.1539 Y1.2479  
G01 X-0.1615 Y1.2491  
G01 X-0.1688 Y1.2514  
G01 X-0.1757 Y1.2549  
G01 X-0.1761 Y1.2552  
G01 X-0.4360 Y1.0829  
G01 X-0.4365 Y1.0824  
G01 X-0.4384 Y1.0813  
G01 X-0.4403 Y1.0801  
G01 X-0.4409 Y1.0798  
G01 X-0.4415 Y1.0795  
G01 X-0.4436 Y1.0789  
G01 X-0.4457 Y1.0782  
G01 X-0.4464 Y1.0782  
G01 X-0.4471 Y1.0780  
G01 X-0.4493 Y1.0780  
G01 X-0.4515 Y1.0779  
G01 X-0.4522 Y1.0780  
G01 X-0.7267 Y1.0780  
G01 X-0.7367 Y1.0680  
G01 X-0.7633 Y1.0680  
G01 X-0.7820 Y1.0867  
G01 X-0.7820 Y1.1133  
G01 X-0.7633 Y1.1320  
G01 X-0.7367 Y1.1320  
G01 X-0.7267 Y1.1220  
G01 X-0.7220 Y1.1220  
G01 X-0.7220 Y1.8529  
G01 X-0.7205 Y1.8585  
G01 X-0.7176 Y1.8635  
G01 X-0.7135 Y1.8676  
G01 X-0.6650 Y1.9161  
G01 X-0.6660 Y1.9175  
G01 X-0.6700 Y1.9254  
G01 X-0.6727 Y1.9337  
G01 X-0.6741 Y1.9424  
G01 X-0.6741 Y2.0513  
G01 X-0.6727 Y2.0600  
G01 X-0.6700 Y2.0683  
G01 X-0.6660 Y2.0762  
G01 X-0.6608 Y2.0833  
G01 X-0.6546 Y2.0896  
G01 X-0.6475 Y2.0947  
G01 X-0.6396 Y2.0987  
G01 X-0.6312 Y2.1015  
G01 X-0.6225 Y2.1029  
G01 X-0.6137 Y2.1029  
G01 X-0.6050 Y2.1015  
G01 X-0.5966 Y2.0987  
G01 X-0.5888 Y2.0947  
G01 X-0.5816 Y2.0896  
G01 X-0.5754 Y2.0833  
G01 X-0.5702 Y2.0762  
G01 X-0.5662 Y2.0683  
G01 X-0.5635 Y2.0600  
G01 X-0.5621 Y2.0513  
G01 X-0.5621 Y1.9424  
G01 X-0.5635 Y1.9337  
G01 X-0.5662 Y1.9254  
G01 X-0.5702 Y1.9175  
G01 X-0.5754 Y1.9104  
G01 X-0.5816 Y1.9041  
G01 X-0.5888 Y1.8990  
G01 X-0.5966 Y1.8950  
G01 X-0.6050 Y1.8922  
G01 X-0.6137 Y1.8909  
G01 X-0.6225 Y1.8909  
G01 X-0.6273 Y1.8916  
G01 X-0.6780 Y1.8409  
G01 X-0.6780 Y1.1220  
G00 Z0.0500  
G00 X-1.0280 Y1.1993  
G01 Z-0.0040 F10    
G01 X-1.0280 Y0.9233  F20    
G01 X-1.0180 Y0.9133  
G01 X-1.0180 Y0.8867  
G01 X-1.0367 Y0.8680  
G01 X-1.0375 Y0.8680  
G01 X-1.0717 Y0.7653  
G01 X-1.0716 Y0.7652  
G01 X-1.0692 Y0.7593  
G01 X-1.0680 Y0.7532  
G01 X-1.0680 Y0.7468  
G01 X-1.0692 Y0.7407  
G01 X-1.0716 Y0.7348  
G01 X-1.0751 Y0.7296  
G01 X-1.0796 Y0.7251  
G01 X-1.0848 Y0.7216  
G01 X-1.0907 Y0.7192  
G01 X-1.0968 Y0.7180  
G01 X-1.1032 Y0.7180  
G01 X-1.1093 Y0.7192  
G01 X-1.1152 Y0.7216  
G01 X-1.1204 Y0.7251  
G01 X-1.1249 Y0.7296  
G01 X-1.1284 Y0.7348  
G01 X-1.1308 Y0.7407  
G01 X-1.1320 Y0.7468  
G01 X-1.1320 Y0.7532  
G01 X-1.1308 Y0.7593  
G01 X-1.1284 Y0.7652  
G01 X-1.1249 Y0.7704  
G01 X-1.1204 Y0.7749  
G01 X-1.1152 Y0.7784  
G01 X-1.1135 Y0.7790  
G01 X-1.0787 Y0.8835  
G01 X-1.0820 Y0.8867  
G01 X-1.0820 Y0.9133  
G01 X-1.0720 Y0.9233  
G01 X-1.0720 Y1.1948  
G01 X-1.1031 Y1.2570  
G01 X-1.1178 Y1.2570  
G01 X-1.1388 Y1.2780  
G01 X-1.1612 Y1.2780  
G01 X-1.1822 Y1.2570  
G01 X-1.2178 Y1.2570  
G01 X-1.2430 Y1.2822  
G01 X-1.2430 Y1.3178  
G01 X-1.2178 Y1.3430  
G01 X-1.1822 Y1.3430  
G01 X-1.1612 Y1.3220  
G01 X-1.1388 Y1.3220  
G01 X-1.1178 Y1.3430  
G01 X-1.0822 Y1.3430  
G01 X-1.0570 Y1.3178  
G01 X-1.0570 Y1.2822  
G01 X-1.0633 Y1.2759  
G01 X-1.0306 Y1.2104  
G01 X-1.0295 Y1.2085  
G01 X-1.0293 Y1.2078  
G01 X-1.0290 Y1.2072  
G01 X-1.0286 Y1.2051  
G01 X-1.0280 Y1.2029  
G01 X-1.0280 Y1.2022  
G01 X-1.0279 Y1.2016  
G01 X-1.0280 Y1.1993  
G00 Z0.0500  
G00 X-1.1367 Y1.1320  
G01 Z-0.0040 F10    
G01 X-1.1180 Y1.1133  F20    
G01 X-1.1180 Y1.0867  
G01 X-1.1367 Y1.0680  
G01 X-1.1375 Y1.0680  
G01 X-1.1780 Y0.9464  
G01 X-1.1780 Y0.8733  
G01 X-1.1680 Y0.8633  
G01 X-1.1680 Y0.8367  
G01 X-1.1780 Y0.8267  
G01 X-1.1780 Y0.6552  
G01 X-1.1364 Y0.5720  
G01 X-1.1233 Y0.5720  
G01 X-1.1204 Y0.5749  
G01 X-1.1152 Y0.5784  
G01 X-1.1093 Y0.5808  
G01 X-1.1032 Y0.5820  
G01 X-1.0968 Y0.5820  
G01 X-1.0907 Y0.5808  
G01 X-1.0848 Y0.5784  
G01 X-1.0796 Y0.5749  
G01 X-1.0751 Y0.5704  
G01 X-1.0716 Y0.5652  
G01 X-1.0692 Y0.5593  
G01 X-1.0680 Y0.5532  
G01 X-1.0680 Y0.5468  
G01 X-1.0692 Y0.5407  
G01 X-1.0716 Y0.5348  
G01 X-1.0751 Y0.5296  
G01 X-1.0796 Y0.5251  
G01 X-1.0848 Y0.5216  
G01 X-1.0907 Y0.5192  
G01 X-1.0968 Y0.5180  
G01 X-1.1032 Y0.5180  
G01 X-1.1093 Y0.5192  
G01 X-1.1152 Y0.5216  
G01 X-1.1204 Y0.5251  
G01 X-1.1233 Y0.5280  
G01 X-1.1478 Y0.5280  
G01 X-1.1484 Y0.5279  
G01 X-1.1507 Y0.5280  
G01 X-1.1529 Y0.5280  
G01 X-1.1535 Y0.5282  
G01 X-1.1542 Y0.5282  
G01 X-1.1563 Y0.5289  
G01 X-1.1585 Y0.5295  
G01 X-1.1591 Y0.5298  
G01 X-1.1597 Y0.5300  
G01 X-1.1616 Y0.5313  
G01 X-1.1635 Y0.5324  
G01 X-1.1640 Y0.5329  
G01 X-1.1645 Y0.5332  
G01 X-1.1660 Y0.5349  
G01 X-1.1676 Y0.5365  
G01 X-1.1679 Y0.5371  
G01 X-1.1684 Y0.5376  
G01 X-1.1694 Y0.5396  
G01 X-1.1705 Y0.5415  
G01 X-1.1707 Y0.5422  
G01 X-1.2194 Y0.6396  
G01 X-1.2205 Y0.6415  
G01 X-1.2207 Y0.6422  
G01 X-1.2210 Y0.6428  
G01 X-1.2214 Y0.6449  
G01 X-1.2220 Y0.6471  
G01 X-1.2220 Y0.6478  
G01 X-1.2221 Y0.6484  
G01 X-1.2220 Y0.6507  
G01 X-1.2220 Y0.8267  
G01 X-1.2320 Y0.8367  
G01 X-1.2320 Y0.8633  
G01 X-1.2220 Y0.8733  
G01 X-1.2220 Y0.9478  
G01 X-1.2221 Y0.9484  
G01 X-1.2220 Y0.9507  
G01 X-1.2220 Y0.9529  
G01 X-1.2218 Y0.9535  
G01 X-1.2218 Y0.9542  
G01 X-1.2211 Y0.9563  
G01 X-1.2205 Y0.9585  
G01 X-1.2202 Y0.9591  
G01 X-1.1787 Y1.0835  
G01 X-1.1820 Y1.0867  
G01 X-1.1820 Y1.1133  
G01 X-1.1633 Y1.1320  
G01 X-1.1367 Y1.1320  
G00 Z0.0500  
G00 X-1.1388 Y1.4220  
G01 Z-0.0040 F10    
G01 X-1.1220 Y1.4388  F20    
G01 X-1.1220 Y1.4612  
G01 X-1.1388 Y1.4780  
G01 X-1.1612 Y1.4780  
G01 X-1.1780 Y1.4612  
G01 X-1.1780 Y1.4388  
G01 X-1.1612 Y1.4220  
G01 X-1.1388 Y1.4220  
G00 Z0.0500  
G00 X-1.1178 Y1.6570  
G01 Z-0.0040 F10    
G01 X-1.1388 Y1.6780  F20    
G01 X-1.1612 Y1.6780  
G01 X-1.1822 Y1.6570  
G01 X-1.2178 Y1.6570  
G01 X-1.2388 Y1.6780  
G01 X-1.2409 Y1.6780  
G01 X-1.3280 Y1.5909  
G01 X-1.3280 Y0.3341  
G01 X-1.2896 Y0.2957  
G01 X-0.9537 Y0.2478  
G01 X-0.9220 Y0.2636  
G01 X-0.9220 Y0.3017  
G01 X-0.9320 Y0.3117  
G01 X-0.9320 Y0.3383  
G01 X-0.9133 Y0.3570  
G01 X-0.9026 Y0.3570  
G01 X-0.8317 Y0.4455  
G01 X-0.8320 Y0.4468  
G01 X-0.8320 Y0.4532  
G01 X-0.8308 Y0.4593  
G01 X-0.8284 Y0.4652  
G01 X-0.8249 Y0.4704  
G01 X-0.8204 Y0.4749  
G01 X-0.8152 Y0.4784  
G01 X-0.8093 Y0.4808  
G01 X-0.8032 Y0.4820  
G01 X-0.7968 Y0.4820  
G01 X-0.7907 Y0.4808  
G01 X-0.7848 Y0.4784  
G01 X-0.7796 Y0.4749  
G01 X-0.7751 Y0.4704  
G01 X-0.7716 Y0.4652  
G01 X-0.7692 Y0.4593  
G01 X-0.7680 Y0.4532  
G01 X-0.7680 Y0.4468  
G01 X-0.7692 Y0.4407  
G01 X-0.7716 Y0.4348  
G01 X-0.7751 Y0.4296  
G01 X-0.7796 Y0.4251  
G01 X-0.7848 Y0.4216  
G01 X-0.7907 Y0.4192  
G01 X-0.7968 Y0.4180  
G01 X-0.7974 Y0.4180  
G01 X-0.8680 Y0.3298  
G01 X-0.8680 Y0.3117  
G01 X-0.8780 Y0.3017  
G01 X-0.8780 Y0.2522  
G01 X-0.8779 Y0.2516  
G01 X-0.8780 Y0.2493  
G01 X-0.8780 Y0.2471  
G01 X-0.8782 Y0.2465  
G01 X-0.8782 Y0.2458  
G01 X-0.8789 Y0.2437  
G01 X-0.8795 Y0.2415  
G01 X-0.8798 Y0.2409  
G01 X-0.8800 Y0.2403  
G01 X-0.8813 Y0.2384  
G01 X-0.8824 Y0.2365  
G01 X-0.8829 Y0.2360  
G01 X-0.8832 Y0.2355  
G01 X-0.8849 Y0.2340  
G01 X-0.8865 Y0.2324  
G01 X-0.8871 Y0.2321  
G01 X-0.8876 Y0.2316  
G01 X-0.8896 Y0.2306  
G01 X-0.8915 Y0.2295  
G01 X-0.8922 Y0.2293  
G01 X-0.9384 Y0.2062  
G01 X-0.9391 Y0.2057  
G01 X-0.9410 Y0.2049  
G01 X-0.9428 Y0.2040  
G01 X-0.9436 Y0.2038  
G01 X-0.9445 Y0.2035  
G01 X-0.9465 Y0.2033  
G01 X-0.9484 Y0.2029  
G01 X-0.9493 Y0.2029  
G01 X-0.9502 Y0.2028  
G01 X-0.9522 Y0.2031  
G01 X-0.9542 Y0.2032  
G01 X-0.9551 Y0.2035  
G01 X-1.3016 Y0.2530  
G01 X-1.3029 Y0.2530  
G01 X-1.3044 Y0.2534  
G01 X-1.3060 Y0.2536  
G01 X-1.3072 Y0.2542  
G01 X-1.3085 Y0.2545  
G01 X-1.3099 Y0.2553  
G01 X-1.3113 Y0.2559  
G01 X-1.3124 Y0.2567  
G01 X-1.3135 Y0.2574  
G01 X-1.3146 Y0.2585  
G01 X-1.3159 Y0.2595  
G01 X-1.3167 Y0.2605  
G01 X-1.3676 Y0.3115  
G01 X-1.3705 Y0.3165  
G01 X-1.3720 Y0.3221  
G01 X-1.3720 Y1.6029  
G01 X-1.3705 Y1.6085  
G01 X-1.3676 Y1.6135  
G01 X-1.3635 Y1.6176  
G01 X-1.2635 Y1.7176  
G01 X-1.2585 Y1.7205  
G01 X-1.2529 Y1.7220  
G01 X-1.2388 Y1.7220  
G01 X-1.2178 Y1.7430  
G01 X-1.1822 Y1.7430  
G01 X-1.1612 Y1.7220  
G01 X-1.1388 Y1.7220  
G01 X-1.1178 Y1.7430  
G01 X-1.0822 Y1.7430  
G01 X-1.0612 Y1.7220  
G01 X-0.9971 Y1.7220  
G01 X-0.9915 Y1.7205  
G01 X-0.9865 Y1.7176  
G01 X-0.9409 Y1.6720  
G01 X-0.9233 Y1.6720  
G01 X-0.9133 Y1.6820  
G01 X-0.8867 Y1.6820  
G01 X-0.8680 Y1.6633  
G01 X-0.8680 Y1.6367  
G01 X-0.8867 Y1.6180  
G01 X-0.9133 Y1.6180  
G01 X-0.9233 Y1.6280  
G01 X-0.9529 Y1.6280  
G01 X-0.9585 Y1.6295  
G01 X-0.9635 Y1.6324  
G01 X-0.9676 Y1.6365  
G01 X-1.0091 Y1.6780  
G01 X-1.0612 Y1.6780  
G01 X-1.0822 Y1.6570  
G01 X-1.1178 Y1.6570  
G00 Z0.0500  
G00 X-1.1178 Y1.7570  
G01 Z-0.0040 F10    
G01 X-1.1430 Y1.7822  F20    
G01 X-1.1430 Y1.8178  
G01 X-1.1178 Y1.8430  
G01 X-1.0822 Y1.8430  
G01 X-1.0570 Y1.8178  
G01 X-1.0570 Y1.7822  
G01 X-1.0822 Y1.7570  
G01 X-1.1178 Y1.7570  
G00 Z0.0500  
G00 X-1.1570 Y1.7822  
G01 Z-0.0040 F10    
G01 X-1.1822 Y1.7570  F20    
G01 X-1.2178 Y1.7570  
G01 X-1.2430 Y1.7822  
G01 X-1.2430 Y1.8178  
G01 X-1.2178 Y1.8430  
G01 X-1.1822 Y1.8430  
G01 X-1.1570 Y1.8178  
G01 X-1.1570 Y1.7822  
G00 Z0.0500  
G00 X-1.1570 Y1.8822  
G01 Z-0.0040 F10    
G01 X-1.1822 Y1.8570  F20    
G01 X-1.2178 Y1.8570  
G01 X-1.2430 Y1.8822  
G01 X-1.2430 Y1.9178  
G01 X-1.2178 Y1.9430  
G01 X-1.1822 Y1.9430  
G01 X-1.1570 Y1.9178  
G01 X-1.1570 Y1.8822  
G00 Z0.0500  
G00 X-1.1430 Y1.8822  
G01 Z-0.0040 F10    
G01 X-1.1430 Y1.9178  F20    
G01 X-1.1178 Y1.9430  
G01 X-1.0822 Y1.9430  
G01 X-1.0570 Y1.9178  
G01 X-1.0570 Y1.8822  
G01 X-1.0822 Y1.8570  
G01 X-1.1178 Y1.8570  
G01 X-1.1430 Y1.8822  
G00 Z0.0500  
G00 X-1.1430 Y1.9822  
G01 Z-0.0040 F10    
G01 X-1.1430 Y2.0178  F20    
G01 X-1.1178 Y2.0430  
G01 X-1.0822 Y2.0430  
G01 X-1.0570 Y2.0178  
G01 X-1.0570 Y1.9822  
G01 X-1.0822 Y1.9570  
G01 X-1.1178 Y1.9570  
G01 X-1.1430 Y1.9822  
G00 Z0.0500  
G00 X-1.1570 Y1.9822  
G01 Z-0.0040 F10    
G01 X-1.1822 Y1.9570  F20    
G01 X-1.2178 Y1.9570  
G01 X-1.2430 Y1.9822  
G01 X-1.2430 Y2.0178  
G01 X-1.2178 Y2.0430  
G01 X-1.1822 Y2.0430  
G01 X-1.1570 Y2.0178  
G01 X-1.1570 Y1.9822  
G00 Z0.0500  
G00 X-0.6242 Y1.8286  
G01 Z-0.0040 F10    
G01 X-0.6180 Y1.8348  F20    
G01 X-0.6108 Y1.8400  
G01 X-0.6030 Y1.8440  
G01 X-0.5946 Y1.8467  
G01 X-0.5859 Y1.8481  
G01 X-0.4771 Y1.8481  
G01 X-0.4684 Y1.8467  
G01 X-0.4600 Y1.8440  
G01 X-0.4521 Y1.8400  
G01 X-0.4450 Y1.8348  
G01 X-0.4388 Y1.8286  
G01 X-0.4336 Y1.8215  
G01 X-0.4296 Y1.8136  
G01 X-0.4269 Y1.8052  
G01 X-0.4255 Y1.7965  
G01 X-0.4255 Y1.7877  
G01 X-0.4269 Y1.7790  
G01 X-0.4296 Y1.7706  
G01 X-0.4336 Y1.7628  
G01 X-0.4388 Y1.7556  
G01 X-0.4450 Y1.7494  
G01 X-0.4521 Y1.7442  
G01 X-0.4600 Y1.7402  
G01 X-0.4684 Y1.7375  
G01 X-0.4771 Y1.7361  
G01 X-0.5111 Y1.7361  
G01 X-0.4892 Y1.6820  
G01 X-0.4867 Y1.6820  
G01 X-0.4680 Y1.6633  
G01 X-0.4680 Y1.6367  
G01 X-0.4867 Y1.6180  
G01 X-0.5133 Y1.6180  
G01 X-0.5320 Y1.6367  
G01 X-0.5320 Y1.6633  
G01 X-0.5299 Y1.6653  
G01 X-0.5586 Y1.7361  
G01 X-0.5859 Y1.7361  
G01 X-0.5946 Y1.7375  
G01 X-0.6030 Y1.7402  
G01 X-0.6108 Y1.7442  
G01 X-0.6180 Y1.7494  
G01 X-0.6242 Y1.7556  
G01 X-0.6294 Y1.7628  
G01 X-0.6334 Y1.7706  
G01 X-0.6361 Y1.7790  
G01 X-0.6375 Y1.7877  
G01 X-0.6375 Y1.7965  
G01 X-0.6361 Y1.8052  
G01 X-0.6334 Y1.8136  
G01 X-0.6294 Y1.8215  
G01 X-0.6242 Y1.8286  
G00 Z0.0500  
G00 X-0.4249 Y1.4732  
G01 Z-0.0040 F10    
G01 X-0.4232 Y1.4749  F20    
G01 X-0.4210 Y1.4758  
G01 X-0.3947 Y1.4758  
G01 X-0.1925 Y1.5567  
G01 X-0.1919 Y1.5601  
G01 X-0.1898 Y1.5665  
G01 X-0.1868 Y1.5725  
G01 X-0.1828 Y1.5780  
G01 X-0.1780 Y1.5828  
G01 X-0.1725 Y1.5868  
G01 X-0.1665 Y1.5898  
G01 X-0.1601 Y1.5919  
G01 X-0.1534 Y1.5930  
G01 X-0.1466 Y1.5930  
G01 X-0.1399 Y1.5919  
G01 X-0.1335 Y1.5898  
G01 X-0.1275 Y1.5868  
G01 X-0.1220 Y1.5828  
G01 X-0.1172 Y1.5780  
G01 X-0.1132 Y1.5725  
G01 X-0.1102 Y1.5665  
G01 X-0.1081 Y1.5601  
G01 X-0.1070 Y1.5534  
G01 X-0.1070 Y1.5466  
G01 X-0.1081 Y1.5399  
G01 X-0.1102 Y1.5335  
G01 X-0.1132 Y1.5275  
G01 X-0.1172 Y1.5220  
G01 X-0.1220 Y1.5172  
G01 X-0.1275 Y1.5132  
G01 X-0.1335 Y1.5102  
G01 X-0.1399 Y1.5081  
G01 X-0.1466 Y1.5070  
G01 X-0.1534 Y1.5070  
G01 X-0.1601 Y1.5081  
G01 X-0.1665 Y1.5102  
G01 X-0.1725 Y1.5132  
G01 X-0.1761 Y1.5158  
G01 X-0.3742 Y1.4366  
G01 X-0.3742 Y1.4290  
G01 X-0.3751 Y1.4268  
G01 X-0.3768 Y1.4251  
G01 X-0.3790 Y1.4242  
G01 X-0.4210 Y1.4242  
G01 X-0.4232 Y1.4251  
G01 X-0.4249 Y1.4268  
G01 X-0.4258 Y1.4290  
G01 X-0.4258 Y1.4710  
G01 X-0.4249 Y1.4732  
G00 Z0.0500  
G00 X-0.5867 Y0.4570  
G01 Z-0.0040 F10    
G01 X-0.5680 Y0.4383  F20    
G01 X-0.5680 Y0.4117  
G01 X-0.5780 Y0.4017  
G01 X-0.5780 Y0.3359  
G01 X-0.5754 Y0.3333  
G01 X-0.5702 Y0.3262  
G01 X-0.5662 Y0.3183  
G01 X-0.5635 Y0.3100  
G01 X-0.5621 Y0.3013  
G01 X-0.5621 Y0.1924  
G01 X-0.5635 Y0.1837  
G01 X-0.5662 Y0.1754  
G01 X-0.5702 Y0.1675  
G01 X-0.5754 Y0.1604  
G01 X-0.5816 Y0.1541  
G01 X-0.5888 Y0.1490  
G01 X-0.5966 Y0.1450  
G01 X-0.6050 Y0.1422  
G01 X-0.6137 Y0.1409  
G01 X-0.6225 Y0.1409  
G01 X-0.6312 Y0.1422  
G01 X-0.6396 Y0.1450  
G01 X-0.6475 Y0.1490  
G01 X-0.6546 Y0.1541  
G01 X-0.6608 Y0.1604  
G01 X-0.6660 Y0.1675  
G01 X-0.6700 Y0.1754  
G01 X-0.6727 Y0.1837  
G01 X-0.6741 Y0.1924  
G01 X-0.6741 Y0.3013  
G01 X-0.6727 Y0.3100  
G01 X-0.6700 Y0.3183  
G01 X-0.6660 Y0.3262  
G01 X-0.6608 Y0.3333  
G01 X-0.6546 Y0.3396  
G01 X-0.6475 Y0.3447  
G01 X-0.6396 Y0.3487  
G01 X-0.6312 Y0.3515  
G01 X-0.6225 Y0.3529  
G01 X-0.6220 Y0.3529  
G01 X-0.6220 Y0.4017  
G01 X-0.6320 Y0.4117  
G01 X-0.6320 Y0.4383  
G01 X-0.6133 Y0.4570  
G01 X-0.5867 Y0.4570  
G00 Z0.0500  
G00 X-0.5859 Y0.0981  
G01 Z-0.0040 F10    
G01 X-0.4771 Y0.0981  F20    
G01 X-0.4684 Y0.0967  
G01 X-0.4600 Y0.0940  
G01 X-0.4521 Y0.0900  
G01 X-0.4450 Y0.0848  
G01 X-0.4388 Y0.0786  
G01 X-0.4336 Y0.0715  
G01 X-0.4296 Y0.0636  
G01 X-0.4269 Y0.0552  
G01 X-0.4255 Y0.0465  
G01 X-0.4255 Y0.0377  
G01 X-0.4269 Y0.0290  
G01 X-0.4296 Y0.0206  
G01 X-0.4336 Y0.0128  
G01 X-0.4388 Y0.0056  
G01 X-0.4450 Y-0.0006 
G01 X-0.4521 Y-0.0058 
G01 X-0.4600 Y-0.0098 
G01 X-0.4684 Y-0.0125 
G01 X-0.4771 Y-0.0139 
G01 X-0.5859 Y-0.0139 
G01 X-0.5946 Y-0.0125 
G01 X-0.6030 Y-0.0098 
G01 X-0.6108 Y-0.0058 
G01 X-0.6180 Y-0.0006 
G01 X-0.6242 Y0.0056  
G01 X-0.6294 Y0.0128  
G01 X-0.6334 Y0.0206  
G01 X-0.6361 Y0.0290  
G01 X-0.6375 Y0.0377  
G01 X-0.6375 Y0.0465  
G01 X-0.6361 Y0.0552  
G01 X-0.6334 Y0.0636  
G01 X-0.6294 Y0.0715  
G01 X-0.6242 Y0.0786  
G01 X-0.6180 Y0.0848  
G01 X-0.6108 Y0.0900  
G01 X-0.6030 Y0.0940  
G01 X-0.5946 Y0.0967  
G01 X-0.5859 Y0.0981  
G00 Z0.0500  
G00 X-0.0546 Y0.1594  
G01 Z-0.0040 F10    
G01 X-0.0610 Y0.1530  F20    
G01 X-0.0683 Y0.1477  
G01 X-0.0764 Y0.1436  
G01 X-0.0850 Y0.1408  
G01 X-0.0939 Y0.1394  
G01 X-0.1030 Y0.1394  
G01 X-0.1119 Y0.1408  
G01 X-0.1205 Y0.1436  
G01 X-0.1286 Y0.1477  
G01 X-0.1359 Y0.1530  
G01 X-0.1423 Y0.1594  
G01 X-0.1476 Y0.1667  
G01 X-0.1517 Y0.1748  
G01 X-0.1545 Y0.1834  
G01 X-0.1559 Y0.1923  
G01 X-0.1559 Y0.3014  
G01 X-0.1545 Y0.3103  
G01 X-0.1517 Y0.3189  
G01 X-0.1476 Y0.3270  
G01 X-0.1423 Y0.3343  
G01 X-0.1359 Y0.3407  
G01 X-0.1286 Y0.3460  
G01 X-0.1205 Y0.3501  
G01 X-0.1119 Y0.3529  
G01 X-0.1030 Y0.3544  
G01 X-0.0939 Y0.3544  
G01 X-0.0850 Y0.3529  
G01 X-0.0764 Y0.3501  
G01 X-0.0735 Y0.3487  
G01 X-0.0735 Y0.4265  
G01 X-0.5023 Y0.4265  
G01 X-0.5069 Y0.4274  
G01 X-0.5111 Y0.4292  
G01 X-0.5150 Y0.4317  
G01 X-0.5183 Y0.4350  
G01 X-0.5597 Y0.4765  
G01 X-0.6403 Y0.4765  
G01 X-0.6727 Y0.4441  
G01 X-0.6727 Y0.4287  
G01 X-0.6738 Y0.4259  
G01 X-0.6759 Y0.4238  
G01 X-0.6787 Y0.4227  
G01 X-0.7213 Y0.4227  
G01 X-0.7241 Y0.4238  
G01 X-0.7262 Y0.4259  
G01 X-0.7273 Y0.4287  
G01 X-0.7273 Y0.4713  
G01 X-0.7262 Y0.4741  
G01 X-0.7241 Y0.4762  
G01 X-0.7213 Y0.4773  
G01 X-0.7059 Y0.4773  
G01 X-0.6683 Y0.5150  
G01 X-0.6650 Y0.5183  
G01 X-0.6611 Y0.5208  
G01 X-0.6569 Y0.5226  
G01 X-0.6523 Y0.5235  
G01 X-0.5477 Y0.5235  
G01 X-0.5431 Y0.5226  
G01 X-0.5389 Y0.5208  
G01 X-0.5350 Y0.5183  
G01 X-0.4903 Y0.4735  
G01 X-0.0735 Y0.4735  
G01 X-0.0735 Y0.8403  
G01 X-0.1081 Y0.8749  
G01 X-0.1115 Y0.8703  
G01 X-0.1171 Y0.8646  
G01 X-0.1235 Y0.8600  
G01 X-0.1306 Y0.8563  
G01 X-0.1382 Y0.8539  
G01 X-0.1460 Y0.8526  
G01 X-0.1540 Y0.8526  
G01 X-0.1618 Y0.8539  
G01 X-0.1694 Y0.8563  
G01 X-0.1765 Y0.8600  
G01 X-0.1829 Y0.8646  
G01 X-0.1885 Y0.8703  
G01 X-0.1932 Y0.8767  
G01 X-0.1968 Y0.8838  
G01 X-0.1993 Y0.8913  
G01 X-0.2005 Y0.8992  
G01 X-0.2005 Y0.9071  
G01 X-0.1993 Y0.9150  
G01 X-0.1968 Y0.9225  
G01 X-0.1932 Y0.9296  
G01 X-0.1885 Y0.9360  
G01 X-0.1829 Y0.9417  
G01 X-0.1765 Y0.9463  
G01 X-0.1694 Y0.9499  
G01 X-0.1618 Y0.9524  
G01 X-0.1540 Y0.9536  
G01 X-0.1460 Y0.9536  
G01 X-0.1382 Y0.9524  
G01 X-0.1306 Y0.9499  
G01 X-0.1235 Y0.9463  
G01 X-0.1171 Y0.9417  
G01 X-0.1115 Y0.9360  
G01 X-0.1068 Y0.9296  
G01 X-0.1053 Y0.9266  
G01 X-0.1008 Y0.9266  
G01 X-0.0963 Y0.9257  
G01 X-0.0920 Y0.9240  
G01 X-0.0882 Y0.9214  
G01 X-0.0350 Y0.8683  
G01 X-0.0317 Y0.8650  
G01 X-0.0292 Y0.8611  
G01 X-0.0274 Y0.8569  
G01 X-0.0265 Y0.8523  
G01 X-0.0265 Y0.2930  
G01 X-0.0274 Y0.2884  
G01 X-0.0292 Y0.2841  
G01 X-0.0317 Y0.2803  
G01 X-0.0409 Y0.2711  
G01 X-0.0409 Y0.1923  
G01 X-0.0423 Y0.1834  
G01 X-0.0451 Y0.1748  
G01 X-0.0492 Y0.1667  
G01 X-0.0546 Y0.1594  
G00 Z0.0500  
G00 X-0.1161 Y0.5210  
G01 Z-0.0040 F10    
G01 X-0.1210 Y0.5161  F20    
G01 X-0.1267 Y0.5119  
G01 X-0.1329 Y0.5088  
G01 X-0.1396 Y0.5066  
G01 X-0.1465 Y0.5055  
G01 X-0.1535 Y0.5055  
G01 X-0.1604 Y0.5066  
G01 X-0.1671 Y0.5088  
G01 X-0.1733 Y0.5119  
G01 X-0.1790 Y0.5161  
G01 X-0.1839 Y0.5210  
G01 X-0.1879 Y0.5265  
G01 X-0.5023 Y0.5265  
G01 X-0.5069 Y0.5274  
G01 X-0.5111 Y0.5292  
G01 X-0.5150 Y0.5317  
G01 X-0.5183 Y0.5350  
G01 X-0.5597 Y0.5765  
G01 X-0.6403 Y0.5765  
G01 X-0.6850 Y0.5317  
G01 X-0.6889 Y0.5292  
G01 X-0.6931 Y0.5274  
G01 X-0.6977 Y0.5265  
G01 X-0.7761 Y0.5265  
G01 X-0.7786 Y0.5240  
G01 X-0.7841 Y0.5203  
G01 X-0.7902 Y0.5178  
G01 X-0.7967 Y0.5165  
G01 X-0.8033 Y0.5165  
G01 X-0.8098 Y0.5178  
G01 X-0.8159 Y0.5203  
G01 X-0.8214 Y0.5240  
G01 X-0.8260 Y0.5286  
G01 X-0.8297 Y0.5341  
G01 X-0.8322 Y0.5402  
G01 X-0.8335 Y0.5467  
G01 X-0.8335 Y0.5533  
G01 X-0.8322 Y0.5598  
G01 X-0.8297 Y0.5659  
G01 X-0.8260 Y0.5714  
G01 X-0.8214 Y0.5760  
G01 X-0.8159 Y0.5797  
G01 X-0.8098 Y0.5822  
G01 X-0.8033 Y0.5835  
G01 X-0.7967 Y0.5835  
G01 X-0.7902 Y0.5822  
G01 X-0.7841 Y0.5797  
G01 X-0.7786 Y0.5760  
G01 X-0.7761 Y0.5735  
G01 X-0.7097 Y0.5735  
G01 X-0.6683 Y0.6150  
G01 X-0.6650 Y0.6183  
G01 X-0.6611 Y0.6208  
G01 X-0.6569 Y0.6226  
G01 X-0.6523 Y0.6235  
G01 X-0.5477 Y0.6235  
G01 X-0.5431 Y0.6226  
G01 X-0.5389 Y0.6208  
G01 X-0.5350 Y0.6183  
G01 X-0.4903 Y0.5735  
G01 X-0.4235 Y0.5735  
G01 X-0.4235 Y0.6736  
G01 X-0.4241 Y0.6738  
G01 X-0.4262 Y0.6759  
G01 X-0.4273 Y0.6787  
G01 X-0.4273 Y0.7213  
G01 X-0.4262 Y0.7241  
G01 X-0.4241 Y0.7262  
G01 X-0.4213 Y0.7273  
G01 X-0.3787 Y0.7273  
G01 X-0.3759 Y0.7262  
G01 X-0.3738 Y0.7241  
G01 X-0.3727 Y0.7213  
G01 X-0.3727 Y0.6787  
G01 X-0.3738 Y0.6759  
G01 X-0.3759 Y0.6738  
G01 X-0.3765 Y0.6736  
G01 X-0.3765 Y0.5735  
G01 X-0.1879 Y0.5735  
G01 X-0.1839 Y0.5790  
G01 X-0.1790 Y0.5839  
G01 X-0.1733 Y0.5881  
G01 X-0.1671 Y0.5912  
G01 X-0.1604 Y0.5934  
G01 X-0.1535 Y0.5945  
G01 X-0.1465 Y0.5945  
G01 X-0.1396 Y0.5934  
G01 X-0.1329 Y0.5912  
G01 X-0.1267 Y0.5881  
G01 X-0.1210 Y0.5839  
G01 X-0.1161 Y0.5790  
G01 X-0.1119 Y0.5733  
G01 X-0.1088 Y0.5671  
G01 X-0.1066 Y0.5604  
G01 X-0.1055 Y0.5535  
G01 X-0.1055 Y0.5465  
G01 X-0.1066 Y0.5396  
G01 X-0.1088 Y0.5329  
G01 X-0.1119 Y0.5267  
G01 X-0.1161 Y0.5210  
G00 Z0.0500  
G00 X-0.1161 Y0.6210  
G01 Z-0.0040 F10    
G01 X-0.1210 Y0.6161  F20    
G01 X-0.1267 Y0.6119  
G01 X-0.1329 Y0.6088  
G01 X-0.1396 Y0.6066  
G01 X-0.1465 Y0.6055  
G01 X-0.1535 Y0.6055  
G01 X-0.1604 Y0.6066  
G01 X-0.1671 Y0.6088  
G01 X-0.1733 Y0.6119  
G01 X-0.1790 Y0.6161  
G01 X-0.1839 Y0.6210  
G01 X-0.1881 Y0.6267  
G01 X-0.1912 Y0.6329  
G01 X-0.1934 Y0.6396  
G01 X-0.1945 Y0.6465  
G01 X-0.1945 Y0.6535  
G01 X-0.1934 Y0.6604  
G01 X-0.1912 Y0.6671  
G01 X-0.1881 Y0.6733  
G01 X-0.1839 Y0.6790  
G01 X-0.1790 Y0.6839  
G01 X-0.1735 Y0.6879  
G01 X-0.1735 Y0.6903  
G01 X-0.2683 Y0.7850  
G01 X-0.2708 Y0.7889  
G01 X-0.2726 Y0.7931  
G01 X-0.2735 Y0.7977  
G01 X-0.2735 Y0.9523  
G01 X-0.2726 Y0.9569  
G01 X-0.2708 Y0.9611  
G01 X-0.2683 Y0.9650  
G01 X-0.2650 Y0.9683  
G01 X-0.2150 Y1.0183  
G01 X-0.2111 Y1.0208  
G01 X-0.2069 Y1.0226  
G01 X-0.2023 Y1.0235  
G01 X-0.1097 Y1.0235  
G01 X-0.0735 Y1.0597  
G01 X-0.0735 Y1.3403  
G01 X-0.1097 Y1.3765  
G01 X-0.2435 Y1.3765  
G01 X-0.4665 Y1.2427  
G01 X-0.4665 Y1.2361  
G01 X-0.4861 Y1.2165  
G01 X-0.5139 Y1.2165  
G01 X-0.5335 Y1.2361  
G01 X-0.5335 Y1.2639  
G01 X-0.5235 Y1.2739  
G01 X-0.5235 Y1.4761  
G01 X-0.5335 Y1.4861  
G01 X-0.5335 Y1.5139  
G01 X-0.5139 Y1.5335  
G01 X-0.4997 Y1.5335  
G01 X-0.4166 Y1.6166  
G01 X-0.4150 Y1.6182  
G01 X-0.4130 Y1.6196  
G01 X-0.4112 Y1.6208  
G01 X-0.4090 Y1.6217  
G01 X-0.4069 Y1.6226  
G01 X-0.4045 Y1.6231  
G01 X-0.1917 Y1.6656  
G01 X-0.1912 Y1.6671  
G01 X-0.1881 Y1.6733  
G01 X-0.1839 Y1.6790  
G01 X-0.1790 Y1.6839  
G01 X-0.1733 Y1.6881  
G01 X-0.1671 Y1.6912  
G01 X-0.1604 Y1.6934  
G01 X-0.1535 Y1.6945  
G01 X-0.1465 Y1.6945  
G01 X-0.1396 Y1.6934  
G01 X-0.1329 Y1.6912  
G01 X-0.1267 Y1.6881  
G01 X-0.1210 Y1.6839  
G01 X-0.1161 Y1.6790  
G01 X-0.1119 Y1.6733  
G01 X-0.1088 Y1.6671  
G01 X-0.1066 Y1.6604  
G01 X-0.1055 Y1.6535  
G01 X-0.1055 Y1.6465  
G01 X-0.1066 Y1.6396  
G01 X-0.1088 Y1.6329  
G01 X-0.1119 Y1.6267  
G01 X-0.1161 Y1.6210  
G01 X-0.1210 Y1.6161  
G01 X-0.1267 Y1.6119  
G01 X-0.1329 Y1.6088  
G01 X-0.1396 Y1.6066  
G01 X-0.1465 Y1.6055  
G01 X-0.1535 Y1.6055  
G01 X-0.1604 Y1.6066  
G01 X-0.1671 Y1.6088  
G01 X-0.1733 Y1.6119  
G01 X-0.1790 Y1.6161  
G01 X-0.1825 Y1.6195  
G01 X-0.3884 Y1.5784  
G01 X-0.4665 Y1.5003  
G01 X-0.4665 Y1.4861  
G01 X-0.4765 Y1.4761  
G01 X-0.4765 Y1.2915  
G01 X-0.2626 Y1.4199  
G01 X-0.2611 Y1.4208  
G01 X-0.2606 Y1.4210  
G01 X-0.2601 Y1.4213  
G01 X-0.2585 Y1.4219  
G01 X-0.2569 Y1.4226  
G01 X-0.2563 Y1.4227  
G01 X-0.2557 Y1.4229  
G01 X-0.2540 Y1.4232  
G01 X-0.2523 Y1.4235  
G01 X-0.2517 Y1.4235  
G01 X-0.2512 Y1.4236  
G01 X-0.2494 Y1.4235  
G01 X-0.0977 Y1.4235  
G01 X-0.0931 Y1.4226  
G01 X-0.0889 Y1.4208  
G01 X-0.0850 Y1.4183  
G01 X-0.0350 Y1.3683  
G01 X-0.0317 Y1.3650  
G01 X-0.0292 Y1.3611  
G01 X-0.0274 Y1.3569  
G01 X-0.0265 Y1.3523  
G01 X-0.0265 Y1.0477  
G01 X-0.0274 Y1.0431  
G01 X-0.0292 Y1.0389  
G01 X-0.0317 Y1.0350  
G01 X-0.0817 Y0.9850  
G01 X-0.0850 Y0.9817  
G01 X-0.0889 Y0.9792  
G01 X-0.0931 Y0.9774  
G01 X-0.0977 Y0.9765  
G01 X-0.1903 Y0.9765  
G01 X-0.2265 Y0.9403  
G01 X-0.2265 Y0.8097  
G01 X-0.1317 Y0.7150  
G01 X-0.1292 Y0.7111  
G01 X-0.1274 Y0.7069  
G01 X-0.1265 Y0.7023  
G01 X-0.1265 Y0.6879  
G01 X-0.1210 Y0.6839  
G01 X-0.1161 Y0.6790  
G01 X-0.1119 Y0.6733  
G01 X-0.1088 Y0.6671  
G01 X-0.1066 Y0.6604  
G01 X-0.1055 Y0.6535  
G01 X-0.1055 Y0.6465  
G01 X-0.1066 Y0.6396  
G01 X-0.1088 Y0.6329  
G01 X-0.1119 Y0.6267  
G01 X-0.1161 Y0.6210  
G00 Z0.0500  
G00 X-0.4817 Y0.6850  
G01 Z-0.0040 F10    
G01 X-0.4850 Y0.6817  F20    
G01 X-0.4889 Y0.6792  
G01 X-0.4931 Y0.6774  
G01 X-0.4977 Y0.6765  
G01 X-0.6445 Y0.6765  
G01 X-0.7382 Y0.6296  
G01 X-0.7389 Y0.6292  
G01 X-0.7402 Y0.6286  
G01 X-0.7416 Y0.6279  
G01 X-0.7424 Y0.6277  
G01 X-0.7431 Y0.6274  
G01 X-0.7446 Y0.6271  
G01 X-0.7460 Y0.6267  
G01 X-0.7469 Y0.6267  
G01 X-0.7477 Y0.6265  
G01 X-0.7492 Y0.6265  
G01 X-0.7506 Y0.6264  
G01 X-0.7515 Y0.6265  
G01 X-0.7761 Y0.6265  
G01 X-0.7786 Y0.6240  
G01 X-0.7841 Y0.6203  
G01 X-0.7902 Y0.6178  
G01 X-0.7967 Y0.6165  
G01 X-0.8033 Y0.6165  
G01 X-0.8098 Y0.6178  
G01 X-0.8159 Y0.6203  
G01 X-0.8214 Y0.6240  
G01 X-0.8260 Y0.6286  
G01 X-0.8297 Y0.6341  
G01 X-0.8322 Y0.6402  
G01 X-0.8335 Y0.6467  
G01 X-0.8335 Y0.6533  
G01 X-0.8322 Y0.6598  
G01 X-0.8297 Y0.6659  
G01 X-0.8260 Y0.6714  
G01 X-0.8214 Y0.6760  
G01 X-0.8159 Y0.6797  
G01 X-0.8098 Y0.6822  
G01 X-0.8033 Y0.6835  
G01 X-0.7967 Y0.6835  
G01 X-0.7902 Y0.6822  
G01 X-0.7841 Y0.6797  
G01 X-0.7786 Y0.6760  
G01 X-0.7761 Y0.6735  
G01 X-0.7555 Y0.6735  
G01 X-0.6618 Y0.7204  
G01 X-0.6611 Y0.7208  
G01 X-0.6598 Y0.7214  
G01 X-0.6584 Y0.7221  
G01 X-0.6576 Y0.7223  
G01 X-0.6569 Y0.7226  
G01 X-0.6554 Y0.7229  
G01 X-0.6540 Y0.7233  
G01 X-0.6531 Y0.7233  
G01 X-0.6523 Y0.7235  
G01 X-0.6508 Y0.7235  
G01 X-0.6494 Y0.7236  
G01 X-0.6485 Y0.7235  
G01 X-0.5235 Y0.7235  
G01 X-0.5235 Y0.8261  
G01 X-0.5335 Y0.8361  
G01 X-0.5335 Y0.8639  
G01 X-0.5139 Y0.8835  
G01 X-0.4861 Y0.8835  
G01 X-0.4665 Y0.8639  
G01 X-0.4665 Y0.8361  
G01 X-0.4765 Y0.8261  
G01 X-0.4765 Y0.6977  
G01 X-0.4774 Y0.6931  
G01 X-0.4792 Y0.6889  
G01 X-0.4817 Y0.6850  
G00 Z0.0500  
G00 X-0.5665 Y0.8111  
G01 Z-0.0040 F10    
G01 X-0.5861 Y0.7915  F20    
G01 X-0.6139 Y0.7915  
G01 X-0.6162 Y0.7938  
G01 X-0.7694 Y0.7364  
G01 X-0.7703 Y0.7341  
G01 X-0.7740 Y0.7286  
G01 X-0.7786 Y0.7240  
G01 X-0.7841 Y0.7203  
G01 X-0.7902 Y0.7178  
G01 X-0.7967 Y0.7165  
G01 X-0.8033 Y0.7165  
G01 X-0.8098 Y0.7178  
G01 X-0.8159 Y0.7203  
G01 X-0.8214 Y0.7240  
G01 X-0.8239 Y0.7265  
G01 X-0.8403 Y0.7265  
G01 X-0.9265 Y0.6403  
G01 X-0.9265 Y0.5477  
G01 X-0.9274 Y0.5431  
G01 X-0.9292 Y0.5389  
G01 X-0.9317 Y0.5350  
G01 X-0.9350 Y0.5317  
G01 X-1.0350 Y0.4317  
G01 X-1.0389 Y0.4292  
G01 X-1.0431 Y0.4274  
G01 X-1.0477 Y0.4265  
G01 X-1.0761 Y0.4265  
G01 X-1.0786 Y0.4240  
G01 X-1.0841 Y0.4203  
G01 X-1.0902 Y0.4178  
G01 X-1.0967 Y0.4165  
G01 X-1.1033 Y0.4165  
G01 X-1.1098 Y0.4178  
G01 X-1.1159 Y0.4203  
G01 X-1.1214 Y0.4240  
G01 X-1.1239 Y0.4265  
G01 X-1.1761 Y0.4265  
G01 X-1.1861 Y0.4165  
G01 X-1.2139 Y0.4165  
G01 X-1.2335 Y0.4361  
G01 X-1.2335 Y0.4639  
G01 X-1.2139 Y0.4835  
G01 X-1.1861 Y0.4835  
G01 X-1.1761 Y0.4735  
G01 X-1.1239 Y0.4735  
G01 X-1.1214 Y0.4760  
G01 X-1.1159 Y0.4797  
G01 X-1.1098 Y0.4822  
G01 X-1.1033 Y0.4835  
G01 X-1.0967 Y0.4835  
G01 X-1.0902 Y0.4822  
G01 X-1.0841 Y0.4797  
G01 X-1.0786 Y0.4760  
G01 X-1.0761 Y0.4735  
G01 X-1.0597 Y0.4735  
G01 X-0.9735 Y0.5597  
G01 X-0.9735 Y0.6523  
G01 X-0.9726 Y0.6569  
G01 X-0.9708 Y0.6611  
G01 X-0.9683 Y0.6650  
G01 X-0.8683 Y0.7650  
G01 X-0.8650 Y0.7683  
G01 X-0.8611 Y0.7708  
G01 X-0.8569 Y0.7726  
G01 X-0.8523 Y0.7735  
G01 X-0.8239 Y0.7735  
G01 X-0.8214 Y0.7760  
G01 X-0.8159 Y0.7797  
G01 X-0.8098 Y0.7822  
G01 X-0.8033 Y0.7835  
G01 X-0.7967 Y0.7835  
G01 X-0.7902 Y0.7822  
G01 X-0.7859 Y0.7804  
G01 X-0.6335 Y0.8375  
G01 X-0.6335 Y0.8389  
G01 X-0.6139 Y0.8585  
G01 X-0.5861 Y0.8585  
G01 X-0.5665 Y0.8389  
G01 X-0.5665 Y0.8111  
G00 Z0.0500  
G00 X-0.6889 Y0.8793  
G01 Z-0.0040 F10    
G01 X-0.6904 Y0.8784  F20    
G01 X-0.6910 Y0.8782  
G01 X-0.6916 Y0.8779  
G01 X-0.6932 Y0.8775  
G01 X-0.8386 Y0.8290  
G01 X-1.0665 Y0.6467  
G01 X-1.0678 Y0.6402  
G01 X-1.0703 Y0.6341  
G01 X-1.0740 Y0.6286  
G01 X-1.0786 Y0.6240  
G01 X-1.0841 Y0.6203  
G01 X-1.0902 Y0.6178  
G01 X-1.0967 Y0.6165  
G01 X-1.1033 Y0.6165  
G01 X-1.1098 Y0.6178  
G01 X-1.1159 Y0.6203  
G01 X-1.1214 Y0.6240  
G01 X-1.1260 Y0.6286  
G01 X-1.1297 Y0.6341  
G01 X-1.1322 Y0.6402  
G01 X-1.1335 Y0.6467  
G01 X-1.1335 Y0.6533  
G01 X-1.1322 Y0.6598  
G01 X-1.1297 Y0.6659  
G01 X-1.1260 Y0.6714  
G01 X-1.1214 Y0.6760  
G01 X-1.1159 Y0.6797  
G01 X-1.1098 Y0.6822  
G01 X-1.1033 Y0.6835  
G01 X-1.0967 Y0.6835  
G01 X-1.0959 Y0.6833  
G01 X-0.8650 Y0.8681  
G01 X-0.8636 Y0.8693  
G01 X-0.8632 Y0.8695  
G01 X-0.8629 Y0.8698  
G01 X-0.8612 Y0.8706  
G01 X-0.8596 Y0.8716  
G01 X-0.8592 Y0.8717  
G01 X-0.8588 Y0.8719  
G01 X-0.8570 Y0.8724  
G01 X-0.7090 Y0.9218  
G01 X-0.5118 Y1.0204  
G01 X-0.5111 Y1.0208  
G01 X-0.5098 Y1.0214  
G01 X-0.5084 Y1.0221  
G01 X-0.5076 Y1.0223  
G01 X-0.5069 Y1.0226  
G01 X-0.5054 Y1.0229  
G01 X-0.5040 Y1.0233  
G01 X-0.5031 Y1.0233  
G01 X-0.5023 Y1.0235  
G01 X-0.5008 Y1.0235  
G01 X-0.4994 Y1.0236  
G01 X-0.4985 Y1.0235  
G01 X-0.4045 Y1.0235  
G01 X-0.2003 Y1.1052  
G01 X-0.1993 Y1.1118  
G01 X-0.1968 Y1.1194  
G01 X-0.1932 Y1.1265  
G01 X-0.1885 Y1.1329  
G01 X-0.1829 Y1.1385  
G01 X-0.1765 Y1.1432  
G01 X-0.1694 Y1.1468  
G01 X-0.1618 Y1.1493  
G01 X-0.1540 Y1.1505  
G01 X-0.1460 Y1.1505  
G01 X-0.1382 Y1.1493  
G01 X-0.1306 Y1.1468  
G01 X-0.1235 Y1.1432  
G01 X-0.1171 Y1.1385  
G01 X-0.1115 Y1.1329  
G01 X-0.1068 Y1.1265  
G01 X-0.1032 Y1.1194  
G01 X-0.1007 Y1.1118  
G01 X-0.0995 Y1.1040  
G01 X-0.0995 Y1.0960  
G01 X-0.1007 Y1.0882  
G01 X-0.1032 Y1.0806  
G01 X-0.1068 Y1.0735  
G01 X-0.1115 Y1.0671  
G01 X-0.1171 Y1.0615  
G01 X-0.1235 Y1.0568  
G01 X-0.1306 Y1.0532  
G01 X-0.1382 Y1.0507  
G01 X-0.1460 Y1.0495  
G01 X-0.1540 Y1.0495  
G01 X-0.1618 Y1.0507  
G01 X-0.1694 Y1.0532  
G01 X-0.1765 Y1.0568  
G01 X-0.1829 Y1.0615  
G01 X-0.3911 Y0.9782  
G01 X-0.3931 Y0.9774  
G01 X-0.3933 Y0.9774  
G01 X-0.3934 Y0.9773  
G01 X-0.3956 Y0.9769  
G01 X-0.3977 Y0.9765  
G01 X-0.3978 Y0.9765  
G01 X-0.3980 Y0.9765  
G01 X-0.4001 Y0.9765  
G01 X-0.4945 Y0.9765  
G01 X-0.6889 Y0.8793  
G00 Z0.0500  
G00 X-0.6787 Y0.9727  
G01 Z-0.0040 F10    
G01 X-0.7213 Y0.9727  F20    
G01 X-0.7241 Y0.9738  
G01 X-0.7262 Y0.9759  
G01 X-0.7264 Y0.9765  
G01 X-0.8403 Y0.9765  
G01 X-0.9165 Y0.9003  
G01 X-0.9165 Y0.8861  
G01 X-0.9361 Y0.8665  
G01 X-0.9639 Y0.8665  
G01 X-0.9835 Y0.8861  
G01 X-0.9835 Y0.9139  
G01 X-0.9714 Y0.9260  
G01 X-0.9269 Y1.4603  
G01 X-1.0555 Y1.3960  
G01 X-1.0555 Y1.3816  
G01 X-1.0816 Y1.3555  
G01 X-1.1184 Y1.3555  
G01 X-1.1394 Y1.3765  
G01 X-1.1606 Y1.3765  
G01 X-1.1816 Y1.3555  
G01 X-1.2184 Y1.3555  
G01 X-1.2394 Y1.3765  
G01 X-1.2765 Y1.3765  
G01 X-1.2765 Y0.3949  
G01 X-1.0202 Y0.3522  
G01 X-1.0139 Y0.3585  
G01 X-0.9861 Y0.3585  
G01 X-0.9665 Y0.3389  
G01 X-0.9665 Y0.3111  
G01 X-0.9861 Y0.2915  
G01 X-1.0139 Y0.2915  
G01 X-1.0283 Y0.3059  
G01 X-1.3019 Y0.3515  
G01 X-1.3023 Y0.3515  
G01 X-1.3042 Y0.3519  
G01 X-1.3061 Y0.3522  
G01 X-1.3065 Y0.3523  
G01 X-1.3069 Y0.3524  
G01 X-1.3087 Y0.3531  
G01 X-1.3105 Y0.3538  
G01 X-1.3108 Y0.3540  
G01 X-1.3111 Y0.3542  
G01 X-1.3128 Y0.3553  
G01 X-1.3144 Y0.3563  
G01 X-1.3147 Y0.3565  
G01 X-1.3150 Y0.3567  
G01 X-1.3164 Y0.3581  
G01 X-1.3178 Y0.3595  
G01 X-1.3180 Y0.3598  
G01 X-1.3183 Y0.3600  
G01 X-1.3193 Y0.3616  
G01 X-1.3205 Y0.3632  
G01 X-1.3206 Y0.3636  
G01 X-1.3208 Y0.3639  
G01 X-1.3216 Y0.3657  
G01 X-1.3224 Y0.3674  
G01 X-1.3225 Y0.3678  
G01 X-1.3226 Y0.3681  
G01 X-1.3230 Y0.3701  
G01 X-1.3234 Y0.3720  
G01 X-1.3234 Y0.3723  
G01 X-1.3235 Y0.3727  
G01 X-1.3235 Y0.3746  
G01 X-1.3236 Y0.3766  
G01 X-1.3235 Y0.3769  
G01 X-1.3235 Y1.4023  
G01 X-1.3226 Y1.4069  
G01 X-1.3208 Y1.4111  
G01 X-1.3183 Y1.4150  
G01 X-1.3150 Y1.4183  
G01 X-1.3111 Y1.4208  
G01 X-1.3069 Y1.4226  
G01 X-1.3023 Y1.4235  
G01 X-1.2394 Y1.4235  
G01 X-1.2235 Y1.4394  
G01 X-1.2235 Y1.4606  
G01 X-1.2445 Y1.4816  
G01 X-1.2445 Y1.5184  
G01 X-1.2235 Y1.5394  
G01 X-1.2235 Y1.5606  
G01 X-1.2445 Y1.5816  
G01 X-1.2445 Y1.6184  
G01 X-1.2184 Y1.6445  
G01 X-1.1816 Y1.6445  
G01 X-1.1555 Y1.6184  
G01 X-1.1555 Y1.5816  
G01 X-1.1765 Y1.5606  
G01 X-1.1765 Y1.5394  
G01 X-1.1606 Y1.5235  
G01 X-1.1394 Y1.5235  
G01 X-1.1235 Y1.5394  
G01 X-1.1235 Y1.5606  
G01 X-1.1445 Y1.5816  
G01 X-1.1445 Y1.6184  
G01 X-1.1184 Y1.6445  
G01 X-1.0816 Y1.6445  
G01 X-1.0555 Y1.6184  
G01 X-1.0555 Y1.5816  
G01 X-1.0765 Y1.5606  
G01 X-1.0765 Y1.5394  
G01 X-1.0555 Y1.5184  
G01 X-1.0555 Y1.4816  
G01 X-1.0765 Y1.4606  
G01 X-1.0765 Y1.4394  
G01 X-1.0756 Y1.4385  
G01 X-0.9335 Y1.5095  
G01 X-0.9335 Y1.5139  
G01 X-0.9139 Y1.5335  
G01 X-0.8861 Y1.5335  
G01 X-0.8859 Y1.5333  
G01 X-0.8235 Y1.5645  
G01 X-0.8235 Y2.0523  
G01 X-0.8226 Y2.0569  
G01 X-0.8208 Y2.0611  
G01 X-0.8183 Y2.0650  
G01 X-0.8150 Y2.0683  
G01 X-0.7183 Y2.1650  
G01 X-0.7150 Y2.1683  
G01 X-0.7111 Y2.1708  
G01 X-0.7069 Y2.1726  
G01 X-0.7023 Y2.1735  
G01 X-0.2493 Y2.1735  
G01 X-0.2447 Y2.1726  
G01 X-0.2404 Y2.1708  
G01 X-0.2366 Y2.1683  
G01 X-0.1466 Y2.0783  
G01 X-0.1423 Y2.0843  
G01 X-0.1359 Y2.0907  
G01 X-0.1286 Y2.0960  
G01 X-0.1205 Y2.1001  
G01 X-0.1119 Y2.1029  
G01 X-0.1030 Y2.1044  
G01 X-0.0939 Y2.1044  
G01 X-0.0850 Y2.1029  
G01 X-0.0764 Y2.1001  
G01 X-0.0683 Y2.0960  
G01 X-0.0610 Y2.0907  
G01 X-0.0546 Y2.0843  
G01 X-0.0492 Y2.0770  
G01 X-0.0451 Y2.0689  
G01 X-0.0423 Y2.0603  
G01 X-0.0409 Y2.0514  
G01 X-0.0409 Y1.9423  
G01 X-0.0423 Y1.9334  
G01 X-0.0451 Y1.9248  
G01 X-0.0492 Y1.9167  
G01 X-0.0546 Y1.9094  
G01 X-0.0610 Y1.9030  
G01 X-0.0683 Y1.8977  
G01 X-0.0764 Y1.8936  
G01 X-0.0850 Y1.8908  
G01 X-0.0939 Y1.8894  
G01 X-0.1030 Y1.8894  
G01 X-0.1119 Y1.8908  
G01 X-0.1205 Y1.8936  
G01 X-0.1286 Y1.8977  
G01 X-0.1359 Y1.9030  
G01 X-0.1423 Y1.9094  
G01 X-0.1476 Y1.9167  
G01 X-0.1517 Y1.9248  
G01 X-0.1545 Y1.9334  
G01 X-0.1559 Y1.9423  
G01 X-0.1559 Y2.0211  
G01 X-0.2613 Y2.1265  
G01 X-0.6903 Y2.1265  
G01 X-0.7765 Y2.0403  
G01 X-0.7765 Y1.5508  
G01 X-0.7764 Y1.5494  
G01 X-0.7765 Y1.5485  
G01 X-0.7765 Y1.5477  
G01 X-0.7768 Y1.5462  
G01 X-0.7770 Y1.5448  
G01 X-0.7772 Y1.5440  
G01 X-0.7774 Y1.5431  
G01 X-0.7780 Y1.5418  
G01 X-0.7784 Y1.5404  
G01 X-0.7789 Y1.5396  
G01 X-0.7792 Y1.5389  
G01 X-0.7800 Y1.5376  
G01 X-0.7807 Y1.5364  
G01 X-0.7813 Y1.5357  
G01 X-0.7817 Y1.5350  
G01 X-0.7828 Y1.5340  
G01 X-0.7838 Y1.5329  
G01 X-0.7844 Y1.5323  
G01 X-0.7850 Y1.5317  
G01 X-0.7863 Y1.5309  
G01 X-0.7874 Y1.5300  
G01 X-0.7882 Y1.5296  
G01 X-0.7889 Y1.5292  
G01 X-0.7902 Y1.5286  
G01 X-0.8665 Y1.4905  
G01 X-0.8665 Y1.4861  
G01 X-0.8786 Y1.4740  
G01 X-0.9213 Y0.9620  
G01 X-0.8683 Y1.0150  
G01 X-0.8650 Y1.0183  
G01 X-0.8611 Y1.0208  
G01 X-0.8569 Y1.0226  
G01 X-0.8523 Y1.0235  
G01 X-0.7264 Y1.0235  
G01 X-0.7262 Y1.0241  
G01 X-0.7241 Y1.0262  
G01 X-0.7213 Y1.0273  
G01 X-0.6787 Y1.0273  
G01 X-0.6759 Y1.0262  
G01 X-0.6738 Y1.0241  
G01 X-0.6727 Y1.0213  
G01 X-0.6727 Y0.9787  
G01 X-0.6738 Y0.9759  
G01 X-0.6759 Y0.9738  
G01 X-0.6787 Y0.9727  
G00 Z0.0500  
G00 X-0.7261 Y1.0765  
G01 Z-0.0040 F10    
G01 X-0.7361 Y1.0665  F20    
G01 X-0.7639 Y1.0665  
G01 X-0.7835 Y1.0861  
G01 X-0.7835 Y1.1139  
G01 X-0.7639 Y1.1335  
G01 X-0.7361 Y1.1335  
G01 X-0.7261 Y1.1235  
G01 X-0.7235 Y1.1235  
G01 X-0.7235 Y1.8523  
G01 X-0.7226 Y1.8569  
G01 X-0.7208 Y1.8611  
G01 X-0.7183 Y1.8650  
G01 X-0.7150 Y1.8683  
G01 X-0.6670 Y1.9163  
G01 X-0.6673 Y1.9167  
G01 X-0.6714 Y1.9248  
G01 X-0.6742 Y1.9334  
G01 X-0.6756 Y1.9423  
G01 X-0.6756 Y2.0514  
G01 X-0.6742 Y2.0603  
G01 X-0.6714 Y2.0689  
G01 X-0.6673 Y2.0770  
G01 X-0.6620 Y2.0843  
G01 X-0.6556 Y2.0907  
G01 X-0.6482 Y2.0960  
G01 X-0.6402 Y2.1001  
G01 X-0.6316 Y2.1029  
G01 X-0.6226 Y2.1044  
G01 X-0.6136 Y2.1044  
G01 X-0.6046 Y2.1029  
G01 X-0.5960 Y2.1001  
G01 X-0.5880 Y2.0960  
G01 X-0.5807 Y2.0907  
G01 X-0.5743 Y2.0843  
G01 X-0.5689 Y2.0770  
G01 X-0.5648 Y2.0689  
G01 X-0.5620 Y2.0603  
G01 X-0.5606 Y2.0514  
G01 X-0.5606 Y1.9423  
G01 X-0.5620 Y1.9334  
G01 X-0.5648 Y1.9248  
G01 X-0.5689 Y1.9167  
G01 X-0.5743 Y1.9094  
G01 X-0.5807 Y1.9030  
G01 X-0.5880 Y1.8977  
G01 X-0.5960 Y1.8936  
G01 X-0.6046 Y1.8908  
G01 X-0.6136 Y1.8894  
G01 X-0.6226 Y1.8894  
G01 X-0.6268 Y1.8900  
G01 X-0.6765 Y1.8403  
G01 X-0.6765 Y1.1235  
G01 X-0.4571 Y1.1235  
G01 X-0.2005 Y1.2936  
G01 X-0.2005 Y1.3008  
G01 X-0.1993 Y1.3087  
G01 X-0.1968 Y1.3162  
G01 X-0.1932 Y1.3233  
G01 X-0.1885 Y1.3297  
G01 X-0.1829 Y1.3354  
G01 X-0.1765 Y1.3400  
G01 X-0.1694 Y1.3437  
G01 X-0.1618 Y1.3461  
G01 X-0.1540 Y1.3474  
G01 X-0.1460 Y1.3474  
G01 X-0.1382 Y1.3461  
G01 X-0.1306 Y1.3437  
G01 X-0.1235 Y1.3400  
G01 X-0.1171 Y1.3354  
G01 X-0.1115 Y1.3297  
G01 X-0.1068 Y1.3233  
G01 X-0.1032 Y1.3162  
G01 X-0.1007 Y1.3087  
G01 X-0.0995 Y1.3008  
G01 X-0.0995 Y1.2929  
G01 X-0.1007 Y1.2850  
G01 X-0.1032 Y1.2775  
G01 X-0.1068 Y1.2704  
G01 X-0.1115 Y1.2640  
G01 X-0.1171 Y1.2583  
G01 X-0.1235 Y1.2537  
G01 X-0.1306 Y1.2501  
G01 X-0.1382 Y1.2476  
G01 X-0.1460 Y1.2464  
G01 X-0.1540 Y1.2464  
G01 X-0.1618 Y1.2476  
G01 X-0.1694 Y1.2501  
G01 X-0.1761 Y1.2535  
G01 X-0.4370 Y1.0804  
G01 X-0.4389 Y1.0792  
G01 X-0.4411 Y1.0783  
G01 X-0.4431 Y1.0774  
G01 X-0.4455 Y1.0769  
G01 X-0.4477 Y1.0765  
G01 X-0.4500 Y1.0765  
G01 X-0.7261 Y1.0765  
G00 Z0.0500  
G00 X-1.1165 Y1.0861  
G01 Z-0.0040 F10    
G01 X-1.1361 Y1.0665  F20    
G01 X-1.1364 Y1.0665  
G01 X-1.1765 Y0.9462  
G01 X-1.1765 Y0.8739  
G01 X-1.1665 Y0.8639  
G01 X-1.1665 Y0.8361  
G01 X-1.1765 Y0.8261  
G01 X-1.1765 Y0.6555  
G01 X-1.1355 Y0.5735  
G01 X-1.1239 Y0.5735  
G01 X-1.1214 Y0.5760  
G01 X-1.1159 Y0.5797  
G01 X-1.1098 Y0.5822  
G01 X-1.1033 Y0.5835  
G01 X-1.0967 Y0.5835  
G01 X-1.0902 Y0.5822  
G01 X-1.0841 Y0.5797  
G01 X-1.0786 Y0.5760  
G01 X-1.0740 Y0.5714  
G01 X-1.0703 Y0.5659  
G01 X-1.0678 Y0.5598  
G01 X-1.0665 Y0.5533  
G01 X-1.0665 Y0.5467  
G01 X-1.0678 Y0.5402  
G01 X-1.0703 Y0.5341  
G01 X-1.0740 Y0.5286  
G01 X-1.0786 Y0.5240  
G01 X-1.0841 Y0.5203  
G01 X-1.0902 Y0.5178  
G01 X-1.0967 Y0.5165  
G01 X-1.1033 Y0.5165  
G01 X-1.1098 Y0.5178  
G01 X-1.1159 Y0.5203  
G01 X-1.1214 Y0.5240  
G01 X-1.1239 Y0.5265  
G01 X-1.1492 Y0.5265  
G01 X-1.1506 Y0.5264  
G01 X-1.1515 Y0.5265  
G01 X-1.1523 Y0.5265  
G01 X-1.1538 Y0.5268  
G01 X-1.1552 Y0.5270  
G01 X-1.1560 Y0.5272  
G01 X-1.1569 Y0.5274  
G01 X-1.1582 Y0.5280  
G01 X-1.1596 Y0.5284  
G01 X-1.1604 Y0.5289  
G01 X-1.1611 Y0.5292  
G01 X-1.1624 Y0.5300  
G01 X-1.1636 Y0.5307  
G01 X-1.1643 Y0.5313  
G01 X-1.1650 Y0.5317  
G01 X-1.1660 Y0.5328  
G01 X-1.1671 Y0.5338  
G01 X-1.1677 Y0.5344  
G01 X-1.1683 Y0.5350  
G01 X-1.1691 Y0.5363  
G01 X-1.1700 Y0.5374  
G01 X-1.1704 Y0.5382  
G01 X-1.1708 Y0.5389  
G01 X-1.1714 Y0.5402  
G01 X-1.2204 Y0.6382  
G01 X-1.2208 Y0.6389  
G01 X-1.2214 Y0.6402  
G01 X-1.2221 Y0.6416  
G01 X-1.2223 Y0.6424  
G01 X-1.2226 Y0.6431  
G01 X-1.2229 Y0.6446  
G01 X-1.2233 Y0.6460  
G01 X-1.2233 Y0.6469  
G01 X-1.2235 Y0.6477  
G01 X-1.2235 Y0.6492  
G01 X-1.2236 Y0.6506  
G01 X-1.2235 Y0.6515  
G01 X-1.2235 Y0.8261  
G01 X-1.2335 Y0.8361  
G01 X-1.2335 Y0.8639  
G01 X-1.2235 Y0.8739  
G01 X-1.2235 Y0.9492  
G01 X-1.2236 Y0.9506  
G01 X-1.2235 Y0.9515  
G01 X-1.2235 Y0.9523  
G01 X-1.2232 Y0.9538  
G01 X-1.2230 Y0.9552  
G01 X-1.2228 Y0.9560  
G01 X-1.2226 Y0.9569  
G01 X-1.2220 Y0.9582  
G01 X-1.1804 Y1.0830  
G01 X-1.1835 Y1.0861  
G01 X-1.1835 Y1.1139  
G01 X-1.1639 Y1.1335  
G01 X-1.1361 Y1.1335  
G01 X-1.1165 Y1.1139  
G01 X-1.1165 Y1.0861  
G00 Z0.0500  
G00 X-1.0735 Y1.1945  
G01 Z-0.0040 F10    
G01 X-1.1040 Y1.2555  F20    
G01 X-1.1184 Y1.2555  
G01 X-1.1394 Y1.2765  
G01 X-1.1606 Y1.2765  
G01 X-1.1816 Y1.2555  
G01 X-1.2184 Y1.2555  
G01 X-1.2445 Y1.2816  
G01 X-1.2445 Y1.3184  
G01 X-1.2184 Y1.3445  
G01 X-1.1816 Y1.3445  
G01 X-1.1606 Y1.3235  
G01 X-1.1394 Y1.3235  
G01 X-1.1184 Y1.3445  
G01 X-1.0816 Y1.3445  
G01 X-1.0555 Y1.3184  
G01 X-1.0555 Y1.2816  
G01 X-1.0615 Y1.2756  
G01 X-1.0296 Y1.2118  
G01 X-1.0292 Y1.2111  
G01 X-1.0286 Y1.2098  
G01 X-1.0279 Y1.2084  
G01 X-1.0277 Y1.2076  
G01 X-1.0274 Y1.2069  
G01 X-1.0271 Y1.2054  
G01 X-1.0267 Y1.2040  
G01 X-1.0267 Y1.2031  
G01 X-1.0265 Y1.2023  
G01 X-1.0265 Y1.2008  
G01 X-1.0264 Y1.1994  
G01 X-1.0265 Y1.1985  
G01 X-1.0265 Y0.9239  
G01 X-1.0165 Y0.9139  
G01 X-1.0165 Y0.8861  
G01 X-1.0361 Y0.8665  
G01 X-1.0364 Y0.8665  
G01 X-1.0701 Y0.7654  
G01 X-1.0678 Y0.7598  
G01 X-1.0665 Y0.7533  
G01 X-1.0665 Y0.7467  
G01 X-1.0678 Y0.7402  
G01 X-1.0703 Y0.7341  
G01 X-1.0740 Y0.7286  
G01 X-1.0786 Y0.7240  
G01 X-1.0841 Y0.7203  
G01 X-1.0902 Y0.7178  
G01 X-1.0967 Y0.7165  
G01 X-1.1033 Y0.7165  
G01 X-1.1098 Y0.7178  
G01 X-1.1159 Y0.7203  
G01 X-1.1214 Y0.7240  
G01 X-1.1260 Y0.7286  
G01 X-1.1297 Y0.7341  
G01 X-1.1322 Y0.7402  
G01 X-1.1335 Y0.7467  
G01 X-1.1335 Y0.7533  
G01 X-1.1322 Y0.7598  
G01 X-1.1297 Y0.7659  
G01 X-1.1260 Y0.7714  
G01 X-1.1214 Y0.7760  
G01 X-1.1159 Y0.7797  
G01 X-1.1147 Y0.7802  
G01 X-1.0804 Y0.8830  
G01 X-1.0835 Y0.8861  
G01 X-1.0835 Y0.9139  
G01 X-1.0735 Y0.9239  
G01 X-1.0735 Y1.1945  
G00 Z0.0500  
G00 X-1.1235 Y1.4394  
G01 Z-0.0040 F10    
G01 X-1.1235 Y1.4606  F20    
G01 X-1.1394 Y1.4765  
G01 X-1.1606 Y1.4765  
G01 X-1.1765 Y1.4606  
G01 X-1.1765 Y1.4394  
G01 X-1.1606 Y1.4235  
G01 X-1.1394 Y1.4235  
G01 X-1.1235 Y1.4394  
G00 Z0.0500  
G00 X-1.1184 Y1.6555  
G01 Z-0.0040 F10    
G01 X-1.1394 Y1.6765  F20    
G01 X-1.1606 Y1.6765  
G01 X-1.1816 Y1.6555  
G01 X-1.2184 Y1.6555  
G01 X-1.2394 Y1.6765  
G01 X-1.2403 Y1.6765  
G01 X-1.3265 Y1.5903  
G01 X-1.3265 Y0.3347  
G01 X-1.2889 Y0.2972  
G01 X-0.9539 Y0.2493  
G01 X-0.9235 Y0.2645  
G01 X-0.9235 Y0.3011  
G01 X-0.9335 Y0.3111  
G01 X-0.9335 Y0.3389  
G01 X-0.9139 Y0.3585  
G01 X-0.9033 Y0.3585  
G01 X-0.8333 Y0.4459  
G01 X-0.8335 Y0.4467  
G01 X-0.8335 Y0.4533  
G01 X-0.8322 Y0.4598  
G01 X-0.8297 Y0.4659  
G01 X-0.8260 Y0.4714  
G01 X-0.8214 Y0.4760  
G01 X-0.8159 Y0.4797  
G01 X-0.8098 Y0.4822  
G01 X-0.8033 Y0.4835  
G01 X-0.7967 Y0.4835  
G01 X-0.7902 Y0.4822  
G01 X-0.7841 Y0.4797  
G01 X-0.7786 Y0.4760  
G01 X-0.7740 Y0.4714  
G01 X-0.7703 Y0.4659  
G01 X-0.7678 Y0.4598  
G01 X-0.7665 Y0.4533  
G01 X-0.7665 Y0.4467  
G01 X-0.7678 Y0.4402  
G01 X-0.7703 Y0.4341  
G01 X-0.7740 Y0.4286  
G01 X-0.7786 Y0.4240  
G01 X-0.7841 Y0.4203  
G01 X-0.7902 Y0.4178  
G01 X-0.7967 Y0.4165  
G01 X-0.8665 Y0.3293  
G01 X-0.8665 Y0.3111  
G01 X-0.8765 Y0.3011  
G01 X-0.8765 Y0.2508  
G01 X-0.8764 Y0.2494  
G01 X-0.8765 Y0.2485  
G01 X-0.8765 Y0.2477  
G01 X-0.8768 Y0.2462  
G01 X-0.8770 Y0.2448  
G01 X-0.8772 Y0.2440  
G01 X-0.8774 Y0.2431  
G01 X-0.8780 Y0.2418  
G01 X-0.8784 Y0.2404  
G01 X-0.8789 Y0.2396  
G01 X-0.8792 Y0.2389  
G01 X-0.8800 Y0.2376  
G01 X-0.8807 Y0.2364  
G01 X-0.8813 Y0.2357  
G01 X-0.8817 Y0.2350  
G01 X-0.8828 Y0.2340  
G01 X-0.8838 Y0.2329  
G01 X-0.8844 Y0.2323  
G01 X-0.8850 Y0.2317  
G01 X-0.8863 Y0.2309  
G01 X-0.8874 Y0.2300  
G01 X-0.8882 Y0.2296  
G01 X-0.8889 Y0.2292  
G01 X-0.8902 Y0.2286  
G01 X-0.9376 Y0.2049  
G01 X-0.9378 Y0.2048  
G01 X-0.9397 Y0.2039  
G01 X-0.9416 Y0.2029  
G01 X-0.9417 Y0.2029  
G01 X-0.9419 Y0.2028  
G01 X-0.9440 Y0.2023  
G01 X-0.9460 Y0.2017  
G01 X-0.9462 Y0.2017  
G01 X-0.9464 Y0.2017  
G01 X-0.9485 Y0.2015  
G01 X-0.9506 Y0.2014  
G01 X-0.9508 Y0.2014  
G01 X-0.9510 Y0.2014  
G01 X-0.9531 Y0.2017  
G01 X-0.9552 Y0.2020  
G01 X-0.9554 Y0.2020  
G01 X-1.3017 Y0.2515  
G01 X-1.3023 Y0.2515  
G01 X-1.3040 Y0.2518  
G01 X-1.3056 Y0.2521  
G01 X-1.3062 Y0.2523  
G01 X-1.3069 Y0.2524  
G01 X-1.3084 Y0.2530  
G01 X-1.3100 Y0.2536  
G01 X-1.3105 Y0.2539  
G01 X-1.3111 Y0.2542  
G01 X-1.3125 Y0.2551  
G01 X-1.3140 Y0.2560  
G01 X-1.3144 Y0.2564  
G01 X-1.3150 Y0.2567  
G01 X-1.3162 Y0.2579  
G01 X-1.3174 Y0.2590  
G01 X-1.3178 Y0.2596  
G01 X-1.3683 Y0.3100  
G01 X-1.3708 Y0.3139  
G01 X-1.3726 Y0.3181  
G01 X-1.3735 Y0.3227  
G01 X-1.3735 Y1.6023  
G01 X-1.3726 Y1.6069  
G01 X-1.3708 Y1.6111  
G01 X-1.3683 Y1.6150  
G01 X-1.3650 Y1.6183  
G01 X-1.2650 Y1.7183  
G01 X-1.2611 Y1.7208  
G01 X-1.2569 Y1.7226  
G01 X-1.2523 Y1.7235  
G01 X-1.2394 Y1.7235  
G01 X-1.2184 Y1.7445  
G01 X-1.1816 Y1.7445  
G01 X-1.1606 Y1.7235  
G01 X-1.1394 Y1.7235  
G01 X-1.1184 Y1.7445  
G01 X-1.0816 Y1.7445  
G01 X-1.0606 Y1.7235  
G01 X-0.9977 Y1.7235  
G01 X-0.9931 Y1.7226  
G01 X-0.9889 Y1.7208  
G01 X-0.9850 Y1.7183  
G01 X-0.9403 Y1.6735  
G01 X-0.9239 Y1.6735  
G01 X-0.9139 Y1.6835  
G01 X-0.8861 Y1.6835  
G01 X-0.8665 Y1.6639  
G01 X-0.8665 Y1.6361  
G01 X-0.8861 Y1.6165  
G01 X-0.9139 Y1.6165  
G01 X-0.9239 Y1.6265  
G01 X-0.9523 Y1.6265  
G01 X-0.9569 Y1.6274  
G01 X-0.9611 Y1.6292  
G01 X-0.9650 Y1.6317  
G01 X-0.9683 Y1.6350  
G01 X-1.0097 Y1.6765  
G01 X-1.0606 Y1.6765  
G01 X-1.0816 Y1.6555  
G01 X-1.1184 Y1.6555  
G00 Z0.0500  
G00 X-1.1184 Y1.7555  
G01 Z-0.0040 F10    
G01 X-1.1445 Y1.7816  F20    
G01 X-1.1445 Y1.8184  
G01 X-1.1184 Y1.8445  
G01 X-1.0816 Y1.8445  
G01 X-1.0555 Y1.8184  
G01 X-1.0555 Y1.7816  
G01 X-1.0816 Y1.7555  
G01 X-1.1184 Y1.7555  
G00 Z0.0500  
G00 X-1.1555 Y1.7816  
G01 Z-0.0040 F10    
G01 X-1.1816 Y1.7555  F20    
G01 X-1.2184 Y1.7555  
G01 X-1.2445 Y1.7816  
G01 X-1.2445 Y1.8184  
G01 X-1.2184 Y1.8445  
G01 X-1.1816 Y1.8445  
G01 X-1.1555 Y1.8184  
G01 X-1.1555 Y1.7816  
G00 Z0.0500  
G00 X-1.1555 Y1.8816  
G01 Z-0.0040 F10    
G01 X-1.1816 Y1.8555  F20    
G01 X-1.2184 Y1.8555  
G01 X-1.2445 Y1.8816  
G01 X-1.2445 Y1.9184  
G01 X-1.2184 Y1.9445  
G01 X-1.1816 Y1.9445  
G01 X-1.1555 Y1.9184  
G01 X-1.1555 Y1.8816  
G00 Z0.0500  
G00 X-1.1445 Y1.8816  
G01 Z-0.0040 F10    
G01 X-1.1445 Y1.9184  F20    
G01 X-1.1184 Y1.9445  
G01 X-1.0816 Y1.9445  
G01 X-1.0555 Y1.9184  
G01 X-1.0555 Y1.8816  
G01 X-1.0816 Y1.8555  
G01 X-1.1184 Y1.8555  
G01 X-1.1445 Y1.8816  
G00 Z0.0500  
G00 X-1.1445 Y1.9816  
G01 Z-0.0040 F10    
G01 X-1.1445 Y2.0184  F20    
G01 X-1.1184 Y2.0445  
G01 X-1.0816 Y2.0445  
G01 X-1.0555 Y2.0184  
G01 X-1.0555 Y1.9816  
G01 X-1.0816 Y1.9555  
G01 X-1.1184 Y1.9555  
G01 X-1.1445 Y1.9816  
G00 Z0.0500  
G00 X-1.1555 Y1.9816  
G01 Z-0.0040 F10    
G01 X-1.1816 Y1.9555  F20    
G01 X-1.2184 Y1.9555  
G01 X-1.2445 Y1.9816  
G01 X-1.2445 Y2.0184  
G01 X-1.2184 Y2.0445  
G01 X-1.1816 Y2.0445  
G01 X-1.1555 Y2.0184  
G01 X-1.1555 Y1.9816  
G00 Z0.0500  
G00 X-0.6254 Y1.8296  
G01 Z-0.0040 F10    
G01 X-0.6190 Y1.8360  F20    
G01 X-0.6116 Y1.8413  
G01 X-0.6036 Y1.8454  
G01 X-0.5950 Y1.8482  
G01 X-0.5860 Y1.8496  
G01 X-0.4770 Y1.8496  
G01 X-0.4680 Y1.8482  
G01 X-0.4594 Y1.8454  
G01 X-0.4514 Y1.8413  
G01 X-0.4440 Y1.8360  
G01 X-0.4376 Y1.8296  
G01 X-0.4323 Y1.8223  
G01 X-0.4282 Y1.8142  
G01 X-0.4254 Y1.8056  
G01 X-0.4240 Y1.7967  
G01 X-0.4240 Y1.7876  
G01 X-0.4254 Y1.7787  
G01 X-0.4282 Y1.7701  
G01 X-0.4323 Y1.7620  
G01 X-0.4376 Y1.7547  
G01 X-0.4440 Y1.7483  
G01 X-0.4514 Y1.7429  
G01 X-0.4594 Y1.7388  
G01 X-0.4680 Y1.7360  
G01 X-0.4770 Y1.7346  
G01 X-0.5089 Y1.7346  
G01 X-0.4882 Y1.6835  
G01 X-0.4861 Y1.6835  
G01 X-0.4665 Y1.6639  
G01 X-0.4665 Y1.6361  
G01 X-0.4861 Y1.6165  
G01 X-0.5139 Y1.6165  
G01 X-0.5335 Y1.6361  
G01 X-0.5335 Y1.6639  
G01 X-0.5317 Y1.6657  
G01 X-0.5596 Y1.7346  
G01 X-0.5860 Y1.7346  
G01 X-0.5950 Y1.7360  
G01 X-0.6036 Y1.7388  
G01 X-0.6116 Y1.7429  
G01 X-0.6190 Y1.7483  
G01 X-0.6254 Y1.7547  
G01 X-0.6307 Y1.7620  
G01 X-0.6348 Y1.7701  
G01 X-0.6376 Y1.7787  
G01 X-0.6390 Y1.7876  
G01 X-0.6390 Y1.7967  
G01 X-0.6376 Y1.8056  
G01 X-0.6348 Y1.8142  
G01 X-0.6307 Y1.8223  
G01 X-0.6254 Y1.8296  
G00 Z0.0500  
G00 X-0.4262 Y1.4741  
G01 Z-0.0040 F10    
G01 X-0.4241 Y1.4762  F20    
G01 X-0.4213 Y1.4773  
G01 X-0.3950 Y1.4773  
G01 X-0.1938 Y1.5578  
G01 X-0.1934 Y1.5604  
G01 X-0.1912 Y1.5671  
G01 X-0.1881 Y1.5733  
G01 X-0.1839 Y1.5790  
G01 X-0.1790 Y1.5839  
G01 X-0.1733 Y1.5881  
G01 X-0.1671 Y1.5912  
G01 X-0.1604 Y1.5934  
G01 X-0.1535 Y1.5945  
G01 X-0.1465 Y1.5945  
G01 X-0.1396 Y1.5934  
G01 X-0.1329 Y1.5912  
G01 X-0.1267 Y1.5881  
G01 X-0.1210 Y1.5839  
G01 X-0.1161 Y1.5790  
G01 X-0.1119 Y1.5733  
G01 X-0.1088 Y1.5671  
G01 X-0.1066 Y1.5604  
G01 X-0.1055 Y1.5535  
G01 X-0.1055 Y1.5465  
G01 X-0.1066 Y1.5396  
G01 X-0.1088 Y1.5329  
G01 X-0.1119 Y1.5267  
G01 X-0.1161 Y1.5210  
G01 X-0.1210 Y1.5161  
G01 X-0.1267 Y1.5119  
G01 X-0.1329 Y1.5088  
G01 X-0.1396 Y1.5066  
G01 X-0.1465 Y1.5055  
G01 X-0.1535 Y1.5055  
G01 X-0.1604 Y1.5066  
G01 X-0.1671 Y1.5088  
G01 X-0.1733 Y1.5119  
G01 X-0.1764 Y1.5141  
G01 X-0.3727 Y1.4356  
G01 X-0.3727 Y1.4287  
G01 X-0.3738 Y1.4259  
G01 X-0.3759 Y1.4238  
G01 X-0.3787 Y1.4227  
G01 X-0.4213 Y1.4227  
G01 X-0.4241 Y1.4238  
G01 X-0.4262 Y1.4259  
G01 X-0.4273 Y1.4287  
G01 X-0.4273 Y1.4713  
G01 X-0.4262 Y1.4741  
G00 Z0.0500  
G00 X-0.5861 Y0.4585  
G01 Z-0.0040 F10    
G01 X-0.5665 Y0.4389  F20    
G01 X-0.5665 Y0.4111  
G01 X-0.5765 Y0.4011  
G01 X-0.5765 Y0.3366  
G01 X-0.5743 Y0.3343  
G01 X-0.5689 Y0.3270  
G01 X-0.5648 Y0.3189  
G01 X-0.5620 Y0.3103  
G01 X-0.5606 Y0.3014  
G01 X-0.5606 Y0.1923  
G01 X-0.5620 Y0.1834  
G01 X-0.5648 Y0.1748  
G01 X-0.5689 Y0.1667  
G01 X-0.5743 Y0.1594  
G01 X-0.5807 Y0.1530  
G01 X-0.5880 Y0.1477  
G01 X-0.5960 Y0.1436  
G01 X-0.6046 Y0.1408  
G01 X-0.6136 Y0.1394  
G01 X-0.6226 Y0.1394  
G01 X-0.6316 Y0.1408  
G01 X-0.6402 Y0.1436  
G01 X-0.6482 Y0.1477  
G01 X-0.6556 Y0.1530  
G01 X-0.6620 Y0.1594  
G01 X-0.6673 Y0.1667  
G01 X-0.6714 Y0.1748  
G01 X-0.6742 Y0.1834  
G01 X-0.6756 Y0.1923  
G01 X-0.6756 Y0.3014  
G01 X-0.6742 Y0.3103  
G01 X-0.6714 Y0.3189  
G01 X-0.6673 Y0.3270  
G01 X-0.6620 Y0.3343  
G01 X-0.6556 Y0.3407  
G01 X-0.6482 Y0.3460  
G01 X-0.6402 Y0.3501  
G01 X-0.6316 Y0.3529  
G01 X-0.6235 Y0.3542  
G01 X-0.6235 Y0.4011  
G01 X-0.6335 Y0.4111  
G01 X-0.6335 Y0.4389  
G01 X-0.6139 Y0.4585  
G01 X-0.5861 Y0.4585  
G00 Z0.0500  
G00 X-0.5860 Y0.0996  
G01 Z-0.0040 F10    
G01 X-0.4770 Y0.0996  F20    
G01 X-0.4680 Y0.0982  
G01 X-0.4594 Y0.0954  
G01 X-0.4514 Y0.0913  
G01 X-0.4440 Y0.0860  
G01 X-0.4376 Y0.0796  
G01 X-0.4323 Y0.0723  
G01 X-0.4282 Y0.0642  
G01 X-0.4254 Y0.0556  
G01 X-0.4240 Y0.0467  
G01 X-0.4240 Y0.0376  
G01 X-0.4254 Y0.0287  
G01 X-0.4282 Y0.0201  
G01 X-0.4323 Y0.0120  
G01 X-0.4376 Y0.0047  
G01 X-0.4440 Y-0.0017 
G01 X-0.4514 Y-0.0071 
G01 X-0.4594 Y-0.0112 
G01 X-0.4680 Y-0.0140 
G01 X-0.4770 Y-0.0154 
G01 X-0.5860 Y-0.0154 
G01 X-0.5950 Y-0.0140 
G01 X-0.6036 Y-0.0112 
G01 X-0.6116 Y-0.0071 
G01 X-0.6190 Y-0.0017 
G01 X-0.6254 Y0.0047  
G01 X-0.6307 Y0.0120  
G01 X-0.6348 Y0.0201  
G01 X-0.6376 Y0.0287  
G01 X-0.6390 Y0.0376  
G01 X-0.6390 Y0.0467  
G01 X-0.6376 Y0.0556  
G01 X-0.6348 Y0.0642  
G01 X-0.6307 Y0.0723  
G01 X-0.6254 Y0.0796  
G01 X-0.6190 Y0.0860  
G01 X-0.6116 Y0.0913  
G01 X-0.6036 Y0.0954  
G01 X-0.5950 Y0.0982  
G01 X-0.5860 Y0.0996  
G00 Z0.0500  
G00 X-0.0534 Y0.1584  
G01 Z-0.0040 F10    
G01 X-0.0600 Y0.1518  F20    
G01 X-0.0675 Y0.1464  
G01 X-0.0758 Y0.1422  
G01 X-0.0846 Y0.1393  
G01 X-0.0938 Y0.1379  
G01 X-0.1031 Y0.1379  
G01 X-0.1122 Y0.1393  
G01 X-0.1211 Y0.1422  
G01 X-0.1293 Y0.1464  
G01 X-0.1369 Y0.1518  
G01 X-0.1434 Y0.1584  
G01 X-0.1489 Y0.1659  
G01 X-0.1531 Y0.1742  
G01 X-0.1560 Y0.1830  
G01 X-0.1574 Y0.1922  
G01 X-0.1574 Y0.3015  
G01 X-0.1560 Y0.3107  
G01 X-0.1531 Y0.3195  
G01 X-0.1489 Y0.3278  
G01 X-0.1434 Y0.3353  
G01 X-0.1369 Y0.3419  
G01 X-0.1293 Y0.3473  
G01 X-0.1211 Y0.3515  
G01 X-0.1122 Y0.3544  
G01 X-0.1031 Y0.3559  
G01 X-0.0938 Y0.3559  
G01 X-0.0846 Y0.3544  
G01 X-0.0758 Y0.3515  
G01 X-0.0750 Y0.3511  
G01 X-0.0750 Y0.4250  
G01 X-0.5025 Y0.4250  
G01 X-0.5073 Y0.4260  
G01 X-0.5118 Y0.4278  
G01 X-0.5159 Y0.4306  
G01 X-0.5194 Y0.4341  
G01 X-0.5604 Y0.4750  
G01 X-0.6396 Y0.4750  
G01 X-0.6712 Y0.4435  
G01 X-0.6712 Y0.4284  
G01 X-0.6726 Y0.4251  
G01 X-0.6751 Y0.4226  
G01 X-0.6784 Y0.4212  
G01 X-0.7216 Y0.4212  
G01 X-0.7249 Y0.4226  
G01 X-0.7274 Y0.4251  
G01 X-0.7288 Y0.4284  
G01 X-0.7288 Y0.4716  
G01 X-0.7274 Y0.4749  
G01 X-0.7249 Y0.4774  
G01 X-0.7216 Y0.4788  
G01 X-0.7065 Y0.4788  
G01 X-0.6694 Y0.5159  
G01 X-0.6659 Y0.5194  
G01 X-0.6618 Y0.5222  
G01 X-0.6573 Y0.5240  
G01 X-0.6525 Y0.5250  
G01 X-0.5475 Y0.5250  
G01 X-0.5427 Y0.5240  
G01 X-0.5382 Y0.5222  
G01 X-0.5341 Y0.5194  
G01 X-0.4896 Y0.4750  
G01 X-0.0750 Y0.4750  
G01 X-0.0750 Y0.8396  
G01 X-0.1079 Y0.8726  
G01 X-0.1103 Y0.8693  
G01 X-0.1161 Y0.8635  
G01 X-0.1227 Y0.8587  
G01 X-0.1300 Y0.8550  
G01 X-0.1378 Y0.8524  
G01 X-0.1459 Y0.8511  
G01 X-0.1541 Y0.8511  
G01 X-0.1622 Y0.8524  
G01 X-0.1700 Y0.8550  
G01 X-0.1773 Y0.8587  
G01 X-0.1839 Y0.8635  
G01 X-0.1897 Y0.8693  
G01 X-0.1945 Y0.8759  
G01 X-0.1982 Y0.8832  
G01 X-0.2007 Y0.8910  
G01 X-0.2020 Y0.8991  
G01 X-0.2020 Y0.9072  
G01 X-0.2007 Y0.9153  
G01 X-0.1982 Y0.9231  
G01 X-0.1945 Y0.9304  
G01 X-0.1897 Y0.9370  
G01 X-0.1839 Y0.9428  
G01 X-0.1773 Y0.9476  
G01 X-0.1700 Y0.9513  
G01 X-0.1622 Y0.9539  
G01 X-0.1541 Y0.9551  
G01 X-0.1459 Y0.9551  
G01 X-0.1378 Y0.9539  
G01 X-0.1300 Y0.9513  
G01 X-0.1227 Y0.9476  
G01 X-0.1161 Y0.9428  
G01 X-0.1103 Y0.9370  
G01 X-0.1055 Y0.9304  
G01 X-0.1044 Y0.9281  
G01 X-0.1007 Y0.9281  
G01 X-0.0959 Y0.9272  
G01 X-0.0913 Y0.9253  
G01 X-0.0872 Y0.9226  
G01 X-0.0341 Y0.8694  
G01 X-0.0306 Y0.8659  
G01 X-0.0278 Y0.8618  
G01 X-0.0260 Y0.8573  
G01 X-0.0250 Y0.8525  
G01 X-0.0250 Y0.2928  
G01 X-0.0260 Y0.2880  
G01 X-0.0278 Y0.2834  
G01 X-0.0306 Y0.2793  
G01 X-0.0394 Y0.2705  
G01 X-0.0394 Y0.1922  
G01 X-0.0409 Y0.1830  
G01 X-0.0437 Y0.1742  
G01 X-0.0480 Y0.1659  
G01 X-0.0534 Y0.1584  
G00 Z0.0500  
G00 X-0.1149 Y0.5200  
G01 Z-0.0040 F10    
G01 X-0.1200 Y0.5149  F20    
G01 X-0.1259 Y0.5107  
G01 X-0.1323 Y0.5074  
G01 X-0.1392 Y0.5051  
G01 X-0.1464 Y0.5040  
G01 X-0.1536 Y0.5040  
G01 X-0.1608 Y0.5051  
G01 X-0.1677 Y0.5074  
G01 X-0.1741 Y0.5107  
G01 X-0.1800 Y0.5149  
G01 X-0.1851 Y0.5200  
G01 X-0.1887 Y0.5250  
G01 X-0.5025 Y0.5250  
G01 X-0.5073 Y0.5260  
G01 X-0.5118 Y0.5278  
G01 X-0.5159 Y0.5306  
G01 X-0.5194 Y0.5341  
G01 X-0.5604 Y0.5750  
G01 X-0.6396 Y0.5750  
G01 X-0.6841 Y0.5306  
G01 X-0.6882 Y0.5278  
G01 X-0.6927 Y0.5260  
G01 X-0.6975 Y0.5250  
G01 X-0.7755 Y0.5250  
G01 X-0.7777 Y0.5228  
G01 X-0.7834 Y0.5190  
G01 X-0.7898 Y0.5163  
G01 X-0.7966 Y0.5150  
G01 X-0.8034 Y0.5150  
G01 X-0.8102 Y0.5163  
G01 X-0.8166 Y0.5190  
G01 X-0.8223 Y0.5228  
G01 X-0.8272 Y0.5277  
G01 X-0.8310 Y0.5334  
G01 X-0.8337 Y0.5398  
G01 X-0.8350 Y0.5466  
G01 X-0.8350 Y0.5534  
G01 X-0.8337 Y0.5602  
G01 X-0.8310 Y0.5666  
G01 X-0.8272 Y0.5723  
G01 X-0.8223 Y0.5772  
G01 X-0.8166 Y0.5810  
G01 X-0.8102 Y0.5837  
G01 X-0.8034 Y0.5850  
G01 X-0.7966 Y0.5850  
G01 X-0.7898 Y0.5837  
G01 X-0.7834 Y0.5810  
G01 X-0.7777 Y0.5772  
G01 X-0.7755 Y0.5750  
G01 X-0.7104 Y0.5750  
G01 X-0.6694 Y0.6159  
G01 X-0.6659 Y0.6194  
G01 X-0.6618 Y0.6222  
G01 X-0.6573 Y0.6240  
G01 X-0.6525 Y0.6250  
G01 X-0.5475 Y0.6250  
G01 X-0.5427 Y0.6240  
G01 X-0.5382 Y0.6222  
G01 X-0.5341 Y0.6194  
G01 X-0.4896 Y0.5750  
G01 X-0.4250 Y0.5750  
G01 X-0.4250 Y0.6726  
G01 X-0.4274 Y0.6751  
G01 X-0.4288 Y0.6784  
G01 X-0.4288 Y0.7216  
G01 X-0.4274 Y0.7249  
G01 X-0.4249 Y0.7274  
G01 X-0.4216 Y0.7288  
G01 X-0.3784 Y0.7288  
G01 X-0.3751 Y0.7274  
G01 X-0.3726 Y0.7249  
G01 X-0.3712 Y0.7216  
G01 X-0.3712 Y0.6784  
G01 X-0.3726 Y0.6751  
G01 X-0.3750 Y0.6726  
G01 X-0.3750 Y0.5750  
G01 X-0.1887 Y0.5750  
G01 X-0.1851 Y0.5800  
G01 X-0.1800 Y0.5851  
G01 X-0.1741 Y0.5893  
G01 X-0.1677 Y0.5926  
G01 X-0.1608 Y0.5949  
G01 X-0.1536 Y0.5960  
G01 X-0.1464 Y0.5960  
G01 X-0.1392 Y0.5949  
G01 X-0.1323 Y0.5926  
G01 X-0.1259 Y0.5893  
G01 X-0.1200 Y0.5851  
G01 X-0.1149 Y0.5800  
G01 X-0.1107 Y0.5741  
G01 X-0.1074 Y0.5677  
G01 X-0.1051 Y0.5608  
G01 X-0.1040 Y0.5536  
G01 X-0.1040 Y0.5464  
G01 X-0.1051 Y0.5392  
G01 X-0.1074 Y0.5323  
G01 X-0.1107 Y0.5259  
G01 X-0.1149 Y0.5200  
G00 Z0.0500  
G00 X-0.1149 Y0.6200  
G01 Z-0.0040 F10    
G01 X-0.1200 Y0.6149  F20    
G01 X-0.1259 Y0.6107  
G01 X-0.1323 Y0.6074  
G01 X-0.1392 Y0.6051  
G01 X-0.1464 Y0.6040  
G01 X-0.1536 Y0.6040  
G01 X-0.1608 Y0.6051  
G01 X-0.1677 Y0.6074  
G01 X-0.1741 Y0.6107  
G01 X-0.1800 Y0.6149  
G01 X-0.1851 Y0.6200  
G01 X-0.1893 Y0.6259  
G01 X-0.1926 Y0.6323  
G01 X-0.1949 Y0.6392  
G01 X-0.1960 Y0.6464  
G01 X-0.1960 Y0.6536  
G01 X-0.1949 Y0.6608  
G01 X-0.1926 Y0.6677  
G01 X-0.1893 Y0.6741  
G01 X-0.1851 Y0.6800  
G01 X-0.1800 Y0.6851  
G01 X-0.1750 Y0.6887  
G01 X-0.1750 Y0.6896  
G01 X-0.2694 Y0.7841  
G01 X-0.2722 Y0.7882  
G01 X-0.2740 Y0.7927  
G01 X-0.2750 Y0.7975  
G01 X-0.2750 Y0.9525  
G01 X-0.2740 Y0.9573  
G01 X-0.2722 Y0.9618  
G01 X-0.2694 Y0.9659  
G01 X-0.2659 Y0.9694  
G01 X-0.2159 Y1.0194  
G01 X-0.2118 Y1.0222  
G01 X-0.2073 Y1.0240  
G01 X-0.2025 Y1.0250  
G01 X-0.1104 Y1.0250  
G01 X-0.0750 Y1.0604  
G01 X-0.0750 Y1.3396  
G01 X-0.1104 Y1.3750  
G01 X-0.2431 Y1.3750  
G01 X-0.4650 Y1.2418  
G01 X-0.4650 Y1.2355  
G01 X-0.4855 Y1.2150  
G01 X-0.5145 Y1.2150  
G01 X-0.5350 Y1.2355  
G01 X-0.5350 Y1.2645  
G01 X-0.5250 Y1.2745  
G01 X-0.5250 Y1.4755  
G01 X-0.5350 Y1.4855  
G01 X-0.5350 Y1.5145  
G01 X-0.5145 Y1.5350  
G01 X-0.5004 Y1.5350  
G01 X-0.4177 Y1.6177  
G01 X-0.4160 Y1.6194  
G01 X-0.4139 Y1.6208  
G01 X-0.4119 Y1.6221  
G01 X-0.4096 Y1.6231  
G01 X-0.4073 Y1.6240  
G01 X-0.4049 Y1.6245  
G01 X-0.1929 Y1.6669  
G01 X-0.1926 Y1.6677  
G01 X-0.1893 Y1.6741  
G01 X-0.1851 Y1.6800  
G01 X-0.1800 Y1.6851  
G01 X-0.1741 Y1.6893  
G01 X-0.1677 Y1.6926  
G01 X-0.1608 Y1.6949  
G01 X-0.1536 Y1.6960  
G01 X-0.1464 Y1.6960  
G01 X-0.1392 Y1.6949  
G01 X-0.1323 Y1.6926  
G01 X-0.1259 Y1.6893  
G01 X-0.1200 Y1.6851  
G01 X-0.1149 Y1.6800  
G01 X-0.1107 Y1.6741  
G01 X-0.1074 Y1.6677  
G01 X-0.1051 Y1.6608  
G01 X-0.1040 Y1.6536  
G01 X-0.1040 Y1.6464  
G01 X-0.1051 Y1.6392  
G01 X-0.1074 Y1.6323  
G01 X-0.1107 Y1.6259  
G01 X-0.1149 Y1.6200  
G01 X-0.1200 Y1.6149  
G01 X-0.1259 Y1.6107  
G01 X-0.1323 Y1.6074  
G01 X-0.1392 Y1.6051  
G01 X-0.1464 Y1.6040  
G01 X-0.1536 Y1.6040  
G01 X-0.1608 Y1.6051  
G01 X-0.1677 Y1.6074  
G01 X-0.1741 Y1.6107  
G01 X-0.1800 Y1.6149  
G01 X-0.1830 Y1.6179  
G01 X-0.3877 Y1.5770  
G01 X-0.4650 Y1.4996  
G01 X-0.4650 Y1.4855  
G01 X-0.4750 Y1.4755  
G01 X-0.4750 Y1.2942  
G01 X-0.2634 Y1.4211  
G01 X-0.2618 Y1.4222  
G01 X-0.2613 Y1.4224  
G01 X-0.2608 Y1.4227  
G01 X-0.2590 Y1.4233  
G01 X-0.2573 Y1.4240  
G01 X-0.2567 Y1.4242  
G01 X-0.2561 Y1.4244  
G01 X-0.2543 Y1.4246  
G01 X-0.2525 Y1.4250  
G01 X-0.2519 Y1.4250  
G01 X-0.2512 Y1.4251  
G01 X-0.2494 Y1.4250  
G01 X-0.0975 Y1.4250  
G01 X-0.0927 Y1.4240  
G01 X-0.0882 Y1.4222  
G01 X-0.0841 Y1.4194  
G01 X-0.0341 Y1.3694  
G01 X-0.0306 Y1.3659  
G01 X-0.0278 Y1.3618  
G01 X-0.0260 Y1.3573  
G01 X-0.0250 Y1.3525  
G01 X-0.0250 Y1.0475  
G01 X-0.0260 Y1.0427  
G01 X-0.0278 Y1.0382  
G01 X-0.0306 Y1.0341  
G01 X-0.0806 Y0.9841  
G01 X-0.0841 Y0.9806  
G01 X-0.0882 Y0.9778  
G01 X-0.0927 Y0.9760  
G01 X-0.0975 Y0.9750  
G01 X-0.1896 Y0.9750  
G01 X-0.2250 Y0.9396  
G01 X-0.2250 Y0.8104  
G01 X-0.1306 Y0.7159  
G01 X-0.1278 Y0.7118  
G01 X-0.1260 Y0.7073  
G01 X-0.1250 Y0.7025  
G01 X-0.1250 Y0.6887  
G01 X-0.1200 Y0.6851  
G01 X-0.1149 Y0.6800  
G01 X-0.1107 Y0.6741  
G01 X-0.1074 Y0.6677  
G01 X-0.1051 Y0.6608  
G01 X-0.1040 Y0.6536  
G01 X-0.1040 Y0.6464  
G01 X-0.1051 Y0.6392  
G01 X-0.1074 Y0.6323  
G01 X-0.1107 Y0.6259  
G01 X-0.1149 Y0.6200  
G00 Z0.0500  
G00 X-0.4806 Y0.6841  
G01 Z-0.0040 F10    
G01 X-0.4841 Y0.6806  F20    
G01 X-0.4882 Y0.6778  
G01 X-0.4927 Y0.6760  
G01 X-0.4975 Y0.6750  
G01 X-0.6441 Y0.6750  
G01 X-0.7374 Y0.6283  
G01 X-0.7382 Y0.6278  
G01 X-0.7396 Y0.6272  
G01 X-0.7410 Y0.6265  
G01 X-0.7419 Y0.6263  
G01 X-0.7427 Y0.6260  
G01 X-0.7443 Y0.6257  
G01 X-0.7458 Y0.6252  
G01 X-0.7467 Y0.6252  
G01 X-0.7475 Y0.6250  
G01 X-0.7491 Y0.6250  
G01 X-0.7507 Y0.6249  
G01 X-0.7516 Y0.6250  
G01 X-0.7755 Y0.6250  
G01 X-0.7777 Y0.6228  
G01 X-0.7834 Y0.6190  
G01 X-0.7898 Y0.6163  
G01 X-0.7966 Y0.6150  
G01 X-0.8034 Y0.6150  
G01 X-0.8102 Y0.6163  
G01 X-0.8166 Y0.6190  
G01 X-0.8223 Y0.6228  
G01 X-0.8272 Y0.6277  
G01 X-0.8310 Y0.6334  
G01 X-0.8337 Y0.6398  
G01 X-0.8350 Y0.6466  
G01 X-0.8350 Y0.6534  
G01 X-0.8337 Y0.6602  
G01 X-0.8310 Y0.6666  
G01 X-0.8272 Y0.6723  
G01 X-0.8223 Y0.6772  
G01 X-0.8166 Y0.6810  
G01 X-0.8102 Y0.6837  
G01 X-0.8034 Y0.6850  
G01 X-0.7966 Y0.6850  
G01 X-0.7898 Y0.6837  
G01 X-0.7834 Y0.6810  
G01 X-0.7777 Y0.6772  
G01 X-0.7755 Y0.6750  
G01 X-0.7559 Y0.6750  
G01 X-0.6626 Y0.7217  
G01 X-0.6618 Y0.7222  
G01 X-0.6604 Y0.7228  
G01 X-0.6590 Y0.7235  
G01 X-0.6581 Y0.7237  
G01 X-0.6573 Y0.7240  
G01 X-0.6557 Y0.7243  
G01 X-0.6542 Y0.7248  
G01 X-0.6533 Y0.7248  
G01 X-0.6525 Y0.7250  
G01 X-0.6509 Y0.7250  
G01 X-0.6493 Y0.7251  
G01 X-0.6484 Y0.7250  
G01 X-0.5250 Y0.7250  
G01 X-0.5250 Y0.8255  
G01 X-0.5350 Y0.8355  
G01 X-0.5350 Y0.8645  
G01 X-0.5145 Y0.8850  
G01 X-0.4855 Y0.8850  
G01 X-0.4650 Y0.8645  
G01 X-0.4650 Y0.8355  
G01 X-0.4750 Y0.8255  
G01 X-0.4750 Y0.6975  
G01 X-0.4760 Y0.6927  
G01 X-0.4778 Y0.6882  
G01 X-0.4806 Y0.6841  
G00 Z0.0500  
G00 X-0.5650 Y0.8105  
G01 Z-0.0040 F10    
G01 X-0.5855 Y0.7900  F20    
G01 X-0.6145 Y0.7900  
G01 X-0.6166 Y0.7921  
G01 X-0.7682 Y0.7352  
G01 X-0.7690 Y0.7334  
G01 X-0.7728 Y0.7277  
G01 X-0.7777 Y0.7228  
G01 X-0.7834 Y0.7190  
G01 X-0.7898 Y0.7163  
G01 X-0.7966 Y0.7150  
G01 X-0.8034 Y0.7150  
G01 X-0.8102 Y0.7163  
G01 X-0.8166 Y0.7190  
G01 X-0.8223 Y0.7228  
G01 X-0.8245 Y0.7250  
G01 X-0.8396 Y0.7250  
G01 X-0.9250 Y0.6396  
G01 X-0.9250 Y0.5475  
G01 X-0.9260 Y0.5427  
G01 X-0.9278 Y0.5382  
G01 X-0.9306 Y0.5341  
G01 X-0.9341 Y0.5306  
G01 X-1.0341 Y0.4306  
G01 X-1.0382 Y0.4278  
G01 X-1.0427 Y0.4260  
G01 X-1.0475 Y0.4250  
G01 X-1.0755 Y0.4250  
G01 X-1.0777 Y0.4228  
G01 X-1.0834 Y0.4190  
G01 X-1.0898 Y0.4163  
G01 X-1.0966 Y0.4150  
G01 X-1.1034 Y0.4150  
G01 X-1.1102 Y0.4163  
G01 X-1.1166 Y0.4190  
G01 X-1.1223 Y0.4228  
G01 X-1.1245 Y0.4250  
G01 X-1.1755 Y0.4250  
G01 X-1.1855 Y0.4150  
G01 X-1.2145 Y0.4150  
G01 X-1.2350 Y0.4355  
G01 X-1.2350 Y0.4645  
G01 X-1.2145 Y0.4850  
G01 X-1.1855 Y0.4850  
G01 X-1.1755 Y0.4750  
G01 X-1.1245 Y0.4750  
G01 X-1.1223 Y0.4772  
G01 X-1.1166 Y0.4810  
G01 X-1.1102 Y0.4837  
G01 X-1.1034 Y0.4850  
G01 X-1.0966 Y0.4850  
G01 X-1.0898 Y0.4837  
G01 X-1.0834 Y0.4810  
G01 X-1.0777 Y0.4772  
G01 X-1.0755 Y0.4750  
G01 X-1.0604 Y0.4750  
G01 X-0.9750 Y0.5604  
G01 X-0.9750 Y0.6525  
G01 X-0.9740 Y0.6573  
G01 X-0.9722 Y0.6618  
G01 X-0.9694 Y0.6659  
G01 X-0.8694 Y0.7659  
G01 X-0.8659 Y0.7694  
G01 X-0.8618 Y0.7722  
G01 X-0.8573 Y0.7740  
G01 X-0.8525 Y0.7750  
G01 X-0.8245 Y0.7750  
G01 X-0.8223 Y0.7772  
G01 X-0.8166 Y0.7810  
G01 X-0.8102 Y0.7837  
G01 X-0.8034 Y0.7850  
G01 X-0.7966 Y0.7850  
G01 X-0.7898 Y0.7837  
G01 X-0.7858 Y0.7820  
G01 X-0.6350 Y0.8386  
G01 X-0.6350 Y0.8395  
G01 X-0.6145 Y0.8600  
G01 X-0.5855 Y0.8600  
G01 X-0.5650 Y0.8395  
G01 X-0.5650 Y0.8105  
G00 Z0.0500  
G00 X-0.6882 Y0.8779  
G01 Z-0.0040 F10    
G01 X-0.6898 Y0.8771  F20    
G01 X-0.6904 Y0.8768  
G01 X-0.6910 Y0.8765  
G01 X-0.6927 Y0.8761  
G01 X-0.8379 Y0.8277  
G01 X-1.0651 Y0.6459  
G01 X-1.0663 Y0.6398  
G01 X-1.0690 Y0.6334  
G01 X-1.0728 Y0.6277  
G01 X-1.0777 Y0.6228  
G01 X-1.0834 Y0.6190  
G01 X-1.0898 Y0.6163  
G01 X-1.0966 Y0.6150  
G01 X-1.1034 Y0.6150  
G01 X-1.1102 Y0.6163  
G01 X-1.1166 Y0.6190  
G01 X-1.1223 Y0.6228  
G01 X-1.1272 Y0.6277  
G01 X-1.1310 Y0.6334  
G01 X-1.1337 Y0.6398  
G01 X-1.1350 Y0.6466  
G01 X-1.1350 Y0.6534  
G01 X-1.1337 Y0.6602  
G01 X-1.1310 Y0.6666  
G01 X-1.1272 Y0.6723  
G01 X-1.1223 Y0.6772  
G01 X-1.1166 Y0.6810  
G01 X-1.1102 Y0.6837  
G01 X-1.1034 Y0.6850  
G01 X-1.0966 Y0.6850  
G01 X-1.0963 Y0.6850  
G01 X-0.8660 Y0.8692  
G01 X-0.8645 Y0.8705  
G01 X-0.8641 Y0.8707  
G01 X-0.8637 Y0.8711  
G01 X-0.8620 Y0.8720  
G01 X-0.8602 Y0.8729  
G01 X-0.8598 Y0.8731  
G01 X-0.8593 Y0.8733  
G01 X-0.8574 Y0.8739  
G01 X-0.7096 Y0.9232  
G01 X-0.5126 Y1.0217  
G01 X-0.5118 Y1.0222  
G01 X-0.5104 Y1.0228  
G01 X-0.5090 Y1.0235  
G01 X-0.5081 Y1.0237  
G01 X-0.5073 Y1.0240  
G01 X-0.5057 Y1.0243  
G01 X-0.5042 Y1.0248  
G01 X-0.5033 Y1.0248  
G01 X-0.5025 Y1.0250  
G01 X-0.5009 Y1.0250  
G01 X-0.4993 Y1.0251  
G01 X-0.4984 Y1.0250  
G01 X-0.4048 Y1.0250  
G01 X-0.2017 Y1.1063  
G01 X-0.2007 Y1.1122  
G01 X-0.1982 Y1.1200  
G01 X-0.1945 Y1.1273  
G01 X-0.1897 Y1.1339  
G01 X-0.1839 Y1.1397  
G01 X-0.1773 Y1.1445  
G01 X-0.1700 Y1.1482  
G01 X-0.1622 Y1.1507  
G01 X-0.1541 Y1.1520  
G01 X-0.1459 Y1.1520  
G01 X-0.1378 Y1.1507  
G01 X-0.1300 Y1.1482  
G01 X-0.1227 Y1.1445  
G01 X-0.1161 Y1.1397  
G01 X-0.1103 Y1.1339  
G01 X-0.1055 Y1.1273  
G01 X-0.1018 Y1.1200  
G01 X-0.0993 Y1.1122  
G01 X-0.0980 Y1.1041  
G01 X-0.0980 Y1.0959  
G01 X-0.0993 Y1.0878  
G01 X-0.1018 Y1.0800  
G01 X-0.1055 Y1.0727  
G01 X-0.1103 Y1.0661  
G01 X-0.1161 Y1.0603  
G01 X-0.1227 Y1.0555  
G01 X-0.1300 Y1.0518  
G01 X-0.1378 Y1.0493  
G01 X-0.1459 Y1.0480  
G01 X-0.1541 Y1.0480  
G01 X-0.1622 Y1.0493  
G01 X-0.1700 Y1.0518  
G01 X-0.1773 Y1.0555  
G01 X-0.1832 Y1.0598  
G01 X-0.3906 Y0.9768  
G01 X-0.3927 Y0.9760  
G01 X-0.3929 Y0.9759  
G01 X-0.3930 Y0.9759  
G01 X-0.3953 Y0.9755  
G01 X-0.3975 Y0.9750  
G01 X-0.3977 Y0.9750  
G01 X-0.3978 Y0.9750  
G01 X-0.4002 Y0.9750  
G01 X-0.4941 Y0.9750  
G01 X-0.6882 Y0.8779  
G00 Z0.0500  
G00 X-0.6784 Y0.9712  
G01 Z-0.0040 F10    
G01 X-0.7216 Y0.9712  F20    
G01 X-0.7249 Y0.9726  
G01 X-0.7273 Y0.9750  
G01 X-0.8396 Y0.9750  
G01 X-0.9150 Y0.8996  
G01 X-0.9150 Y0.8855  
G01 X-0.9355 Y0.8650  
G01 X-0.9645 Y0.8650  
G01 X-0.9850 Y0.8855  
G01 X-0.9850 Y0.9145  
G01 X-0.9729 Y0.9266  
G01 X-0.9286 Y1.4577  
G01 X-1.0540 Y1.3950  
G01 X-1.0540 Y1.3809  
G01 X-1.0809 Y1.3540  
G01 X-1.1191 Y1.3540  
G01 X-1.1401 Y1.3750  
G01 X-1.1599 Y1.3750  
G01 X-1.1809 Y1.3540  
G01 X-1.2191 Y1.3540  
G01 X-1.2401 Y1.3750  
G01 X-1.2750 Y1.3750  
G01 X-1.2750 Y0.3962  
G01 X-1.0207 Y0.3538  
G01 X-1.0145 Y0.3600  
G01 X-0.9855 Y0.3600  
G01 X-0.9650 Y0.3395  
G01 X-0.9650 Y0.3105  
G01 X-0.9855 Y0.2900  
G01 X-1.0145 Y0.2900  
G01 X-1.0290 Y0.3045  
G01 X-1.3021 Y0.3500  
G01 X-1.3025 Y0.3500  
G01 X-1.3045 Y0.3504  
G01 X-1.3065 Y0.3507  
G01 X-1.3069 Y0.3509  
G01 X-1.3073 Y0.3510  
G01 X-1.3092 Y0.3518  
G01 X-1.3111 Y0.3525  
G01 X-1.3115 Y0.3527  
G01 X-1.3118 Y0.3528  
G01 X-1.3136 Y0.3540  
G01 X-1.3153 Y0.3551  
G01 X-1.3156 Y0.3554  
G01 X-1.3159 Y0.3556  
G01 X-1.3174 Y0.3570  
G01 X-1.3189 Y0.3585  
G01 X-1.3191 Y0.3588  
G01 X-1.3194 Y0.3591  
G01 X-1.3206 Y0.3608  
G01 X-1.3218 Y0.3625  
G01 X-1.3219 Y0.3628  
G01 X-1.3222 Y0.3632  
G01 X-1.3229 Y0.3651  
G01 X-1.3238 Y0.3670  
G01 X-1.3239 Y0.3673  
G01 X-1.3240 Y0.3677  
G01 X-1.3244 Y0.3697  
G01 X-1.3249 Y0.3718  
G01 X-1.3249 Y0.3722  
G01 X-1.3250 Y0.3725  
G01 X-1.3250 Y0.3746  
G01 X-1.3250 Y0.3354  
G01 X-1.2882 Y0.2986  
G01 X-0.9542 Y0.2509  
G01 X-0.9250 Y0.2655  
G01 X-0.9250 Y0.3005  
G01 X-0.9350 Y0.3105  
G01 X-0.9350 Y0.3395  
G01 X-0.9145 Y0.3600  
G01 X-0.9040 Y0.3600  
G01 X-0.8350 Y0.4463  
G01 X-0.8350 Y0.4466  
G01 X-0.8350 Y0.4534  
G01 X-0.8337 Y0.4602  
G01 X-0.8310 Y0.4666  
G01 X-0.8272 Y0.4723  
G01 X-0.8223 Y0.4772  
G01 X-0.8166 Y0.4810  
G01 X-0.8102 Y0.4837  
G01 X-0.8034 Y0.4850  
G01 X-0.7966 Y0.4850  
G01 X-0.7898 Y0.4837  
G01 X-0.7834 Y0.4810  
G01 X-0.7777 Y0.4772  
G01 X-0.7728 Y0.4723  
G01 X-0.7690 Y0.4666  
G01 X-0.7663 Y0.4602  
G01 X-0.7650 Y0.4534  
G01 X-0.7650 Y0.4466  
G01 X-0.7663 Y0.4398  
G01 X-0.7690 Y0.4334  
G01 X-0.7728 Y0.4277  
G01 X-0.7777 Y0.4228  
G01 X-0.7834 Y0.4190  
G01 X-0.7898 Y0.4163  
G01 X-0.7959 Y0.4151  
G01 X-0.8650 Y0.3287  
G01 X-0.8650 Y0.3105  
G01 X-0.8750 Y0.3005  
G01 X-0.8750 Y0.2509  
G01 X-0.8749 Y0.2493  
G01 X-0.8750 Y0.2484  
G01 X-0.8750 Y0.2475  
G01 X-0.8753 Y0.2460  
G01 X-0.8755 Y0.2444  
G01 X-0.8758 Y0.2436  
G01 X-0.8760 Y0.2427  
G01 X-0.8766 Y0.2413  
G01 X-0.8771 Y0.2398  
G01 X-0.8775 Y0.2390  
G01 X-0.8778 Y0.2382  
G01 X-0.8787 Y0.2368  
G01 X-0.8795 Y0.2355  
G01 X-0.8801 Y0.2348  
G01 X-0.8806 Y0.2341  
G01 X-0.8817 Y0.2329  
G01 X-0.8827 Y0.2318  
G01 X-0.8834 Y0.2312  
G01 X-0.8841 Y0.2306  
G01 X-0.8854 Y0.2297  
G01 X-0.8866 Y0.2287  
G01 X-0.8874 Y0.2283  
G01 X-0.8882 Y0.2278  
G01 X-0.8896 Y0.2272  
G01 X-0.9368 Y0.2036  
G01 X-0.9370 Y0.2035  
G01 X-0.9390 Y0.2025  
G01 X-0.9410 Y0.2015  
G01 X-0.9412 Y0.2015  
G01 X-0.9414 Y0.2014  
G01 X-0.9436 Y0.2008  
G01 X-0.9458 Y0.2002  
G01 X-0.9460 Y0.2002  
G01 X-0.9462 Y0.2002  
G01 X-0.9484 Y0.2000  
G01 X-0.9507 Y0.1999  
G01 X-0.9509 Y0.1999  
G01 X-0.9511 Y0.1999  
G01 X-0.9533 Y0.2002  
G01 X-0.9556 Y0.2005  
G01 X-0.9558 Y0.2006  
G01 X-1.3018 Y0.2500  
G01 X-1.3025 Y0.2500  
G01 X-1.3042 Y0.2503  
G01 X-1.3060 Y0.2506  
G01 X-1.3066 Y0.2508  
G01 X-1.3073 Y0.2510  
G01 X-1.3089 Y0.2516  
G01 X-1.3106 Y0.2522  
G01 X-1.3112 Y0.2526  
G01 X-1.3118 Y0.2528  
G01 X-1.3133 Y0.2538  
G01 X-1.3149 Y0.2547  
G01 X-1.3154 Y0.2552  
G01 X-1.3159 Y0.2556  
G01 X-1.3172 Y0.2568  
G01 X-1.3185 Y0.2580  
G01 X-1.3189 Y0.2586  
G01 X-1.3694 Y0.3091  
G01 X-1.3722 Y0.3132  
G01 X-1.3740 Y0.3177  
G01 X-1.3750 Y0.3225  
G01 X-1.3750 Y1.6025  
G01 X-1.3740 Y1.6073  
G01 X-1.3722 Y1.6118  
G01 X-1.3694 Y1.6159  
G01 X-1.3659 Y1.6194  
G01 X-1.2659 Y1.7194  
G01 X-1.2618 Y1.7222  
G01 X-1.2573 Y1.7240  
G01 X-1.2525 Y1.7250  
G01 X-1.2401 Y1.7250  
G01 X-1.2191 Y1.7460  
G01 X-1.1809 Y1.7460  
G01 X-1.1599 Y1.7250  
G01 X-1.1401 Y1.7250  
G01 X-1.1191 Y1.7460  
G01 X-1.0809 Y1.7460  
G01 X-1.0599 Y1.7250  
G01 X-0.9975 Y1.7250  
G01 X-0.9927 Y1.7240  
G01 X-0.9882 Y1.7222  
G01 X-0.9841 Y1.7194  
G01 X-0.9396 Y1.6750  
G01 X-0.9245 Y1.6750  
G01 X-0.9145 Y1.6850  
G01 X-0.8855 Y1.6850  
G01 X-0.8650 Y1.6645  
G01 X-0.8650 Y1.6355  
G01 X-0.8855 Y1.6150  
G01 X-0.9145 Y1.6150  
G01 X-0.9245 Y1.6250  
G01 X-0.9525 Y1.6250  
G01 X-0.9573 Y1.6260  
G01 X-0.9618 Y1.6278  
G01 X-0.9659 Y1.6306  
G01 X-0.9694 Y1.6341  
G01 X-1.0104 Y1.6750  
G01 X-1.0599 Y1.6750  
G01 X-1.0809 Y1.6540  
G01 X-1.1191 Y1.6540  
G01 X-1.1401 Y1.6750  
G01 X-1.1599 Y1.6750  
G01 X-1.1809 Y1.6540  
G01 X-1.2191 Y1.6540  
G01 X-1.2398 Y1.6748  
G01 X-1.3250 Y1.5896  
G01 X-1.3250 Y0.3771  
G01 X-1.3250 Y1.4025  
G01 X-1.3240 Y1.4073  
G01 X-1.3222 Y1.4118  
G01 X-1.3194 Y1.4159  
G01 X-1.3159 Y1.4194  
G01 X-1.3118 Y1.4222  
G01 X-1.3073 Y1.4240  
G01 X-1.3025 Y1.4250  
G01 X-1.2401 Y1.4250  
G01 X-1.2250 Y1.4401  
G01 X-1.2250 Y1.4599  
G01 X-1.2460 Y1.4809  
G01 X-1.2460 Y1.5191  
G01 X-1.2250 Y1.5401  
G01 X-1.2250 Y1.5599  
G01 X-1.2460 Y1.5809  
G01 X-1.2460 Y1.6191  
G01 X-1.2191 Y1.6460  
G01 X-1.1809 Y1.6460  
G01 X-1.1540 Y1.6191  
G01 X-1.1540 Y1.5809  
G01 X-1.1750 Y1.5599  
G01 X-1.1750 Y1.5401  
G01 X-1.1599 Y1.5250  
G01 X-1.1401 Y1.5250  
G01 X-1.1250 Y1.5401  
G01 X-1.1250 Y1.5599  
G01 X-1.1460 Y1.5809  
G01 X-1.1460 Y1.6191  
G01 X-1.1191 Y1.6460  
G01 X-1.0809 Y1.6460  
G01 X-1.0540 Y1.6191  
G01 X-1.0540 Y1.5809  
G01 X-1.0750 Y1.5599  
G01 X-1.0750 Y1.5401  
G01 X-1.0540 Y1.5191  
G01 X-1.0540 Y1.4809  
G01 X-1.0750 Y1.4599  
G01 X-1.0750 Y1.4405  
G01 X-0.9350 Y1.5105  
G01 X-0.9350 Y1.5145  
G01 X-0.9145 Y1.5350  
G01 X-0.8859 Y1.5350  
G01 X-0.8250 Y1.5655  
G01 X-0.8250 Y2.0525  
G01 X-0.8240 Y2.0573  
G01 X-0.8222 Y2.0618  
G01 X-0.8194 Y2.0659  
G01 X-0.8159 Y2.0694  
G01 X-0.7194 Y2.1659  
G01 X-0.7159 Y2.1694  
G01 X-0.7118 Y2.1722  
G01 X-0.7073 Y2.1740  
G01 X-0.7025 Y2.1750  
G01 X-0.2491 Y2.1750  
G01 X-0.2443 Y2.1740  
G01 X-0.2397 Y2.1722  
G01 X-0.2356 Y2.1694  
G01 X-0.1468 Y2.0806  
G01 X-0.1434 Y2.0853  
G01 X-0.1369 Y2.0919  
G01 X-0.1293 Y2.0973  
G01 X-0.1211 Y2.1015  
G01 X-0.1122 Y2.1044  
G01 X-0.1031 Y2.1059  
G01 X-0.0938 Y2.1059  
G01 X-0.0846 Y2.1044  
G01 X-0.0758 Y2.1015  
G01 X-0.0675 Y2.0973  
G01 X-0.0600 Y2.0919  
G01 X-0.0534 Y2.0853  
G01 X-0.0480 Y2.0778  
G01 X-0.0437 Y2.0695  
G01 X-0.0409 Y2.0607  
G01 X-0.0394 Y2.0515  
G01 X-0.0394 Y1.9422  
G01 X-0.0409 Y1.9330  
G01 X-0.0437 Y1.9242  
G01 X-0.0480 Y1.9159  
G01 X-0.0534 Y1.9084  
G01 X-0.0600 Y1.9018  
G01 X-0.0675 Y1.8964  
G01 X-0.0758 Y1.8922  
G01 X-0.0846 Y1.8893  
G01 X-0.0938 Y1.8879  
G01 X-0.1031 Y1.8879  
G01 X-0.1122 Y1.8893  
G01 X-0.1211 Y1.8922  
G01 X-0.1293 Y1.8964  
G01 X-0.1369 Y1.9018  
G01 X-0.1434 Y1.9084  
G01 X-0.1489 Y1.9159  
G01 X-0.1531 Y1.9242  
G01 X-0.1560 Y1.9330  
G01 X-0.1574 Y1.9422  
G01 X-0.1574 Y2.0205  
G01 X-0.2619 Y2.1250  
G01 X-0.6896 Y2.1250  
G01 X-0.7750 Y2.0396  
G01 X-0.7750 Y1.5509  
G01 X-0.7749 Y1.5493  
G01 X-0.7750 Y1.5484  
G01 X-0.7750 Y1.5475  
G01 X-0.7753 Y1.5460  
G01 X-0.7755 Y1.5444  
G01 X-0.7758 Y1.5436  
G01 X-0.7760 Y1.5427  
G01 X-0.7766 Y1.5413  
G01 X-0.7771 Y1.5398  
G01 X-0.7775 Y1.5390  
G01 X-0.7778 Y1.5382  
G01 X-0.7787 Y1.5368  
G01 X-0.7795 Y1.5355  
G01 X-0.7801 Y1.5348  
G01 X-0.7806 Y1.5341  
G01 X-0.7817 Y1.5329  
G01 X-0.7827 Y1.5318  
G01 X-0.7834 Y1.5312  
G01 X-0.7841 Y1.5306  
G01 X-0.7854 Y1.5297  
G01 X-0.7866 Y1.5287  
G01 X-0.7874 Y1.5283  
G01 X-0.7882 Y1.5278  
G01 X-0.7896 Y1.5272  
G01 X-0.8650 Y1.4895  
G01 X-0.8650 Y1.4855  
G01 X-0.8771 Y1.4734  
G01 X-0.9194 Y0.9659  
G01 X-0.8694 Y1.0159  
G01 X-0.8659 Y1.0194  
G01 X-0.8618 Y1.0222  
G01 X-0.8573 Y1.0240  
G01 X-0.8525 Y1.0250  
G01 X-0.7273 Y1.0250  
G01 X-0.7249 Y1.0274  
G01 X-0.7216 Y1.0288  
G01 X-0.6784 Y1.0288  
G01 X-0.6751 Y1.0274  
G01 X-0.6726 Y1.0249  
G01 X-0.6712 Y1.0216  
G01 X-0.6712 Y0.9784  
G01 X-0.6726 Y0.9751  
G01 X-0.6751 Y0.9726  
G01 X-0.6784 Y0.9712  
G00 Z0.0500  
G00 X-0.7255 Y1.0750  
G01 Z-0.0040 F10    
G01 X-0.7355 Y1.0650  F20    
G01 X-0.7645 Y1.0650  
G01 X-0.7850 Y1.0855  
G01 X-0.7850 Y1.1145  
G01 X-0.7645 Y1.1350  
G01 X-0.7355 Y1.1350  
G01 X-0.7255 Y1.1250  
G01 X-0.7250 Y1.1250  
G01 X-0.7250 Y1.8525  
G01 X-0.7240 Y1.8573  
G01 X-0.7222 Y1.8618  
G01 X-0.7194 Y1.8659  
G01 X-0.7159 Y1.8694  
G01 X-0.6689 Y1.9165  
G01 X-0.6728 Y1.9242  
G01 X-0.6757 Y1.9330  
G01 X-0.6771 Y1.9422  
G01 X-0.6771 Y2.0515  
G01 X-0.6757 Y2.0607  
G01 X-0.6728 Y2.0695  
G01 X-0.6686 Y2.0778  
G01 X-0.6631 Y2.0853  
G01 X-0.6565 Y2.0919  
G01 X-0.6490 Y2.0973  
G01 X-0.6408 Y2.1015  
G01 X-0.6319 Y2.1044  
G01 X-0.6228 Y2.1059  
G01 X-0.6135 Y2.1059  
G01 X-0.6043 Y2.1044  
G01 X-0.5955 Y2.1015  
G01 X-0.5872 Y2.0973  
G01 X-0.5797 Y2.0919  
G01 X-0.5731 Y2.0853  
G01 X-0.5676 Y2.0778  
G01 X-0.5634 Y2.0695  
G01 X-0.5606 Y2.0607  
G01 X-0.5591 Y2.0515  
G01 X-0.5591 Y1.9422  
G01 X-0.5606 Y1.9330  
G01 X-0.5634 Y1.9242  
G01 X-0.5676 Y1.9159  
G01 X-0.5731 Y1.9084  
G01 X-0.5797 Y1.9018  
G01 X-0.5872 Y1.8964  
G01 X-0.5955 Y1.8922  
G01 X-0.6043 Y1.8893  
G01 X-0.6135 Y1.8879  
G01 X-0.6228 Y1.8879  
G01 X-0.6262 Y1.8884  
G01 X-0.6750 Y1.8396  
G01 X-0.6750 Y1.1250  
G01 X-0.4575 Y1.1250  
G01 X-0.2020 Y1.2945  
G01 X-0.2020 Y1.3009  
G01 X-0.2007 Y1.3090  
G01 X-0.1982 Y1.3168  
G01 X-0.1945 Y1.3241  
G01 X-0.1897 Y1.3307  
G01 X-0.1839 Y1.3365  
G01 X-0.1773 Y1.3413  
G01 X-0.1700 Y1.3450  
G01 X-0.1622 Y1.3476  
G01 X-0.1541 Y1.3489  
G01 X-0.1459 Y1.3489  
G01 X-0.1378 Y1.3476  
G01 X-0.1300 Y1.3450  
G01 X-0.1227 Y1.3413  
G01 X-0.1161 Y1.3365  
G01 X-0.1103 Y1.3307  
G01 X-0.1055 Y1.3241  
G01 X-0.1018 Y1.3168  
G01 X-0.0993 Y1.3090  
G01 X-0.0980 Y1.3009  
G01 X-0.0980 Y1.2928  
G01 X-0.0993 Y1.2847  
G01 X-0.1018 Y1.2769  
G01 X-0.1055 Y1.2696  
G01 X-0.1103 Y1.2630  
G01 X-0.1161 Y1.2572  
G01 X-0.1227 Y1.2524  
G01 X-0.1300 Y1.2487  
G01 X-0.1378 Y1.2461  
G01 X-0.1459 Y1.2449  
G01 X-0.1541 Y1.2449  
G01 X-0.1622 Y1.2461  
G01 X-0.1700 Y1.2487  
G01 X-0.1760 Y1.2517  
G01 X-0.4361 Y1.0792  
G01 X-0.4382 Y1.0778  
G01 X-0.4405 Y1.0769  
G01 X-0.4427 Y1.0760  
G01 X-0.4452 Y1.0755  
G01 X-0.4475 Y1.0750  
G01 X-0.4501 Y1.0750  
G01 X-0.7255 Y1.0750  
G00 Z0.0500  
G00 X-1.1150 Y1.0855  
G01 Z-0.0040 F10    
G01 X-1.1352 Y1.0653  F20    
G01 X-1.1750 Y0.9459  
G01 X-1.1750 Y0.8745  
G01 X-1.1650 Y0.8645  
G01 X-1.1650 Y0.8355  
G01 X-1.1750 Y0.8255  
G01 X-1.1750 Y0.6559  
G01 X-1.1345 Y0.5750  
G01 X-1.1245 Y0.5750  
G01 X-1.1223 Y0.5772  
G01 X-1.1166 Y0.5810  
G01 X-1.1102 Y0.5837  
G01 X-1.1034 Y0.5850  
G01 X-1.0966 Y0.5850  
G01 X-1.0898 Y0.5837  
G01 X-1.0834 Y0.5810  
G01 X-1.0777 Y0.5772  
G01 X-1.0728 Y0.5723  
G01 X-1.0690 Y0.5666  
G01 X-1.0663 Y0.5602  
G01 X-1.0650 Y0.5534  
G01 X-1.0650 Y0.5466  
G01 X-1.0663 Y0.5398  
G01 X-1.0690 Y0.5334  
G01 X-1.0728 Y0.5277  
G01 X-1.0777 Y0.5228  
G01 X-1.0834 Y0.5190  
G01 X-1.0898 Y0.5163  
G01 X-1.0966 Y0.5150  
G01 X-1.1034 Y0.5150  
G01 X-1.1102 Y0.5163  
G01 X-1.1166 Y0.5190  
G01 X-1.1223 Y0.5228  
G01 X-1.1245 Y0.5250  
G01 X-1.1491 Y0.5250  
G01 X-1.1507 Y0.5249  
G01 X-1.1516 Y0.5250  
G01 X-1.1525 Y0.5250  
G01 X-1.1540 Y0.5253  
G01 X-1.1556 Y0.5255  
G01 X-1.1564 Y0.5258  
G01 X-1.1573 Y0.5260  
G01 X-1.1587 Y0.5266  
G01 X-1.1602 Y0.5271  
G01 X-1.1610 Y0.5275  
G01 X-1.1618 Y0.5278  
G01 X-1.1632 Y0.5287  
G01 X-1.1645 Y0.5295  
G01 X-1.1652 Y0.5301  
G01 X-1.1659 Y0.5306  
G01 X-1.1671 Y0.5317  
G01 X-1.1682 Y0.5327  
G01 X-1.1688 Y0.5334  
G01 X-1.1694 Y0.5341  
G01 X-1.1703 Y0.5354  
G01 X-1.1713 Y0.5366  
G01 X-1.1717 Y0.5374  
G01 X-1.1722 Y0.5382  
G01 X-1.1728 Y0.5396  
G01 X-1.2217 Y0.6374  
G01 X-1.2222 Y0.6382  
G01 X-1.2228 Y0.6396  
G01 X-1.2235 Y0.6410  
G01 X-1.2237 Y0.6419  
G01 X-1.2240 Y0.6427  
G01 X-1.2243 Y0.6443  
G01 X-1.2248 Y0.6458  
G01 X-1.2248 Y0.6467  
G01 X-1.2250 Y0.6475  
G01 X-1.2250 Y0.6491  
G01 X-1.2251 Y0.6507  
G01 X-1.2250 Y0.6516  
G01 X-1.2250 Y0.8255  
G01 X-1.2350 Y0.8355  
G01 X-1.2350 Y0.8645  
G01 X-1.2250 Y0.8745  
G01 X-1.2250 Y0.9491  
G01 X-1.2251 Y0.9507  
G01 X-1.2250 Y0.9516  
G01 X-1.2250 Y0.9525  
G01 X-1.2247 Y0.9540  
G01 X-1.2245 Y0.9556  
G01 X-1.2242 Y0.9564  
G01 X-1.2240 Y0.9573  
G01 X-1.2234 Y0.9587  
G01 X-1.1821 Y1.0826  
G01 X-1.1850 Y1.0855  
G01 X-1.1850 Y1.1145  
G01 X-1.1645 Y1.1350  
G01 X-1.1355 Y1.1350  
G01 X-1.1150 Y1.1145  
G01 X-1.1150 Y1.0855  
G00 Z0.0500  
G00 X-1.0750 Y1.1941  
G01 Z-0.0040 F10    
G01 X-1.1050 Y1.2540  F20    
G01 X-1.1191 Y1.2540  
G01 X-1.1401 Y1.2750  
G01 X-1.1599 Y1.2750  
G01 X-1.1809 Y1.2540  
G01 X-1.2191 Y1.2540  
G01 X-1.2460 Y1.2809  
G01 X-1.2460 Y1.3191  
G01 X-1.2191 Y1.3460  
G01 X-1.1809 Y1.3460  
G01 X-1.1599 Y1.3250  
G01 X-1.1401 Y1.3250  
G01 X-1.1191 Y1.3460  
G01 X-1.0809 Y1.3460  
G01 X-1.0540 Y1.3191  
G01 X-1.0540 Y1.2809  
G01 X-1.0597 Y1.2753  
G01 X-1.0283 Y1.2126  
G01 X-1.0278 Y1.2118  
G01 X-1.0272 Y1.2104  
G01 X-1.0265 Y1.2090  
G01 X-1.0263 Y1.2081  
G01 X-1.0260 Y1.2073  
G01 X-1.0257 Y1.2057  
G01 X-1.0252 Y1.2042  
G01 X-1.0252 Y1.2033  
G01 X-1.0250 Y1.2025  
G01 X-1.0250 Y1.2009  
G01 X-1.0249 Y1.1993  
G01 X-1.0250 Y1.1984  
G01 X-1.0250 Y0.9245  
G01 X-1.0150 Y0.9145  
G01 X-1.0150 Y0.8855  
G01 X-1.0352 Y0.8653  
G01 X-1.0685 Y0.7654  
G01 X-1.0663 Y0.7602  
G01 X-1.0650 Y0.7534  
G01 X-1.0650 Y0.7466  
G01 X-1.0663 Y0.7398  
G01 X-1.0690 Y0.7334  
G01 X-1.0728 Y0.7277  
G01 X-1.0777 Y0.7228  
G01 X-1.0834 Y0.7190  
G01 X-1.0898 Y0.7163  
G01 X-1.0966 Y0.7150  
G01 X-1.1034 Y0.7150  
G01 X-1.1102 Y0.7163  
G01 X-1.1166 Y0.7190  
G01 X-1.1223 Y0.7228  
G01 X-1.1272 Y0.7277  
G01 X-1.1310 Y0.7334  
G01 X-1.1337 Y0.7398  
G01 X-1.1350 Y0.7466  
G01 X-1.1350 Y0.7534  
G01 X-1.1337 Y0.7602  
G01 X-1.1310 Y0.7666  
G01 X-1.1272 Y0.7723  
G01 X-1.1223 Y0.7772  
G01 X-1.1166 Y0.7810  
G01 X-1.1159 Y0.7813  
G01 X-1.0821 Y0.8826  
G01 X-1.0850 Y0.8855  
G01 X-1.0850 Y0.9145  
G01 X-1.0750 Y0.9245  
G01 X-1.0750 Y1.1941  
G00 Z0.0500  
G00 X-1.1250 Y1.4401  
G01 Z-0.0040 F10    
G01 X-1.1250 Y1.4599  F20    
G01 X-1.1401 Y1.4750  
G01 X-1.1599 Y1.4750  
G01 X-1.1750 Y1.4599  
G01 X-1.1750 Y1.4401  
G01 X-1.1599 Y1.4250  
G01 X-1.1401 Y1.4250  
G01 X-1.1250 Y1.4401  
G00 Z0.0500  
G00 X-1.1191 Y1.7540  
G01 Z-0.0040 F10    
G01 X-1.1460 Y1.7809  F20    
G01 X-1.1460 Y1.8191  
G01 X-1.1191 Y1.8460  
G01 X-1.0809 Y1.8460  
G01 X-1.0540 Y1.8191  
G01 X-1.0540 Y1.7809  
G01 X-1.0809 Y1.7540  
G01 X-1.1191 Y1.7540  
G00 Z0.0500  
G00 X-1.1540 Y1.7809  
G01 Z-0.0040 F10    
G01 X-1.1809 Y1.7540  F20    
G01 X-1.2191 Y1.7540  
G01 X-1.2460 Y1.7809  
G01 X-1.2460 Y1.8191  
G01 X-1.2191 Y1.8460  
G01 X-1.1809 Y1.8460  
G01 X-1.1540 Y1.8191  
G01 X-1.1540 Y1.7809  
G00 Z0.0500  
G00 X-1.1540 Y1.8809  
G01 Z-0.0040 F10    
G01 X-1.1809 Y1.8540  F20    
G01 X-1.2191 Y1.8540  
G01 X-1.2460 Y1.8809  
G01 X-1.2460 Y1.9191  
G01 X-1.2191 Y1.9460  
G01 X-1.1809 Y1.9460  
G01 X-1.1540 Y1.9191  
G01 X-1.1540 Y1.8809  
G00 Z0.0500  
G00 X-1.1460 Y1.8809  
G01 Z-0.0040 F10    
G01 X-1.1460 Y1.9191  F20    
G01 X-1.1191 Y1.9460  
G01 X-1.0809 Y1.9460  
G01 X-1.0540 Y1.9191  
G01 X-1.0540 Y1.8809  
G01 X-1.0809 Y1.8540  
